!!!!SEGMENT: pl-cz--iii-672--003_scigalski-franciszek--tria-gradualia-deus-tuorum-militum.krn
!!!cenid: 18xx:1077
!!!COM: Ścigalski, Franciszek
!!!COM-rismID:
!!!CDT: 1782/01/29-1846/09/27
!!!CNT: Polish
!!!GTL: Tria Gradualia
!!!OTL: Deus tuorum militum
!!!PDT:
!!!AGN: Sacred
!!!SMS-siglum: PL-CZ
!!!SMS-shelfmark: III-672
!!!SMS-shelfwork: 003 G
!!!SMS-variant:
!!!SMS-altvar:
!!!NIFC-rismSourceID: 300001310
!!!NIFC-islandoraID: pl-cz:39964
!!!URL-pdf-islandora: https://repozytorium.nifc.pl/islandora/object/pl-cz%3A39964/datastream/PDF/view
!!!URL-scan:
!!!ONB-nifc:
!!!AIN: 1 alto 1 bass 2 clars 2 cor 2 flt 1 organ 1 soprn 1 tenor 1 timpa 2 tromp 1 viola 2 violn
!!!key: C
**kern	**fba	**dynam	**kern	**dynam	**kern	**dynam	**kern	**dynam	**kern	**text	**dynam	**kern	**text	**dynam	**kern	**text	**dynam	**kern	**text	**dynam	**kern	**dynam	**kern	**dynam	**kern	**dynam	**kern	**dynam	**kern	**dynam	**kern	**dynam	**kern	**dynam	**kern	**dynam	**kern	**dynam
*	*	*	*group4	*	*group4	*	*group4	*	*group3	*	*	*group3	*	*	*group3	*	*	*group3	*	*	*	*	*group2	*	*group2	*	*group2	*	*group2	*	*group1	*	*group1	*	*group1	*	*group1	*
*part17	*part17	*part17	*part16	*part16	*part15	*part15	*part14	*part14	*part13	*part13	*part13	*part12	*part12	*part12	*part11	*part11	*part11	*part10	*part10	*part10	*part9	*part9	*part8	*part8	*part7	*part7	*part6	*part6	*part5	*part5	*part4	*part4	*part3	*part3	*part2	*part2	*part1	*
*staff17	*	*	*staff16	*	*staff15	*	*staff14	*	*staff13	*staff13	*	*staff12	*staff12	*	*staff11	*staff11	*	*staff10	*staff10	*	*staff9	*	*staff8	*	*staff7	*	*staff6	*	*staff5	*	*staff4	*	*staff3	*	*staff2	*	*staff1	*
*I"Organo.	*	*	*I"Viola.	*	*I"Violin 2.do	*	*I"Violin 1mo	*	*I"Basſo.	*	*	*I"Tenore	*	*	*I"Alto.	*	*	*I"Canto	*	*	*I"Tympani	*	*I"Clarino 2do	*	*I"Clarino 1mo	*	*I"Corno 2do	*	*I"Corno 1mo	*	*I"Clarinetto 2do	*	*I"Clarinetto 1mo	*	*I"Flauto 2do	*	*I"Flauto 1mo	*
*I'org	*	*	*I'vla	*	*I'vl 2	*	*I'vl 1	*	*I'B	*	*	*I'T	*	*	*I'A	*	*	*I'S	*	*	*I'timp	*	*I'clar 2	*	*I'clar 1	*	*I'cor 2	*	*I'cor 1	*	*I'cl 2	*	*I'cl 1	*	*I'fl 2	*	*I'fl 1	*
*Iorgan	*	*	*Iviola	*	*Ivioln	*	*Ivioln	*	*Ibass	*	*	*Itenor	*	*	*Ialto	*	*	*Isoprn	*	*	*Itimpa	*	*Itromp	*	*Itromp	*	*Icor	*	*Icor	*	*Iclars	*	*Iclars	*	*Iflt	*	*Iflt	*
*ICklav	*	*	*ICstr	*	*ICstr	*	*ICstr	*	*ICvox	*	*	*ICvox	*	*	*ICvox	*	*	*ICvox	*	*	*ICidio	*	*ICbras	*	*ICbras	*	*ICbras	*	*ICbras	*	*ICww	*	*ICww	*	*ICww	*	*ICww	*
*IGcont	*	*	*	*	*	*	*	*	*IGcoro	*	*	*IGcoro	*	*	*IGcoro	*	*	*IGcoro	*	*	*	*	*	*	*	*	*	*	*	*	*	*	*	*	*	*	*	*
*clefF4	*	*	*clefC3	*	*clefG2	*	*clefG2	*	*clefF4	*	*	*clefC4	*	*	*clefC3	*	*	*clefC1	*	*	*clefF4	*	*clefG2	*	*clefG2	*	*clefG2	*	*clefG2	*	*clefG2	*	*clefG2	*	*clefG2	*	*clefG2	*
*	*	*	*	*	*	*	*	*	*	*	*	*	*	*	*	*	*	*	*	*	*	*	*	*	*	*	*Trd0c0	*	*Trd0c0	*	*	*	*	*	*	*	*	*
*k[]	*	*	*k[]	*	*k[]	*	*k[]	*	*k[]	*	*	*k[]	*	*	*k[]	*	*	*k[]	*	*	*k[]	*	*k[]	*	*k[]	*	*k[]	*	*k[]	*	*k[]	*	*k[]	*	*k[]	*	*k[]	*
*C:	*	*	*C:	*	*C:	*	*C:	*	*C:	*	*	*C:	*	*	*C:	*	*	*C:	*	*	*C:	*	*C:	*	*C:	*	*C:	*	*C:	*	*C:	*	*C:	*	*C:	*	*C:	*
*M3/4	*	*	*M3/4	*	*M3/4	*	*M3/4	*	*M3/4	*	*	*M3/4	*	*	*M3/4	*	*	*M3/4	*	*	*M3/4	*	*M3/4	*	*M3/4	*	*M3/4	*	*M3/4	*	*M3/4	*	*M3/4	*	*M3/4	*	*M3/4	*
=1	=1	=1	=1	=1	=1	=1	=1	=1	=1	=1	=1	=1	=1	=1	=1	=1	=1	=1	=1	=1	=1	=1	=1	=1	=1	=1	=1	=1	=1	=1	=1	=1	=1	=1	=1	=1	=1	=1
!	!	!	!	!	!	!	!	!	!LO:TX:a:t=13.	!	!	!LO:TX:a:t=13	!	!	!LO:TX:a:t=13.	!	!	!LO:TX:a:t=3	!	!	!	!	!	!	!	!	!	!	!	!	!LO:TX:a:t=Clari in C.	!	!LO:TX:a:i:t=Clarinetto in C.	!	!	!	!	!
!LO:TX:a:Bi:t=molto Adagio.	!	!	!LO:TX:a:Bi:t=molto Adagio.	!LO:DY:t=fr.	!LO:TX:a:Bi:t=Molto Adigo.	!LO:DY:t=fr&colon;:rj	!LO:TX:a:Bi:t=Molto Adagio.	!	!LO:TX:a:Bi:t=molto Adagio	!	!	!LO:TX:a:Bi:t=molto Adagio	!	!	!LO:TX:a:Bi:t=molto Adagio	!	!	!LO:TX:a:Bi:t=adagio molto.	!	!	!LO:TX:a:Bi:t=molto Adagio in C. G.	!LO:DY:rj:t=fr.	!LO:TX:a:Bi:t=molto Adagio in C.	!LO:DY:rj	!LO:TX:a:Bi:t=molto Adagio in C.	!LO:DY:rj:t=fr.	!LO:TX:a:Bi:t=molto Adagio in C	!LO:DY:rj	!LO:TX:a:Bi:t=molto Adagio in C.	!LO:DY:rj:t=fr.	!LO:TX:a:Bi:t=molto adagio	!LO:DY:rj	!LO:TX:a:Bi:t=molto adagio	!LO:DY:t=fr.:rj	!LO:TX:a:Bi:t=molto adagio	!LO:DY:t=fr.:rj	!LO:TX:a:Bi:t=molto adagio	!
8.C/L	8_ 5 3_	.	8.G/L	f	8.eL 8.G/	f	8.ccL 8.e 8.G/	f	0.r	.	.	0.r	.	.	0.r	.	.	1.r	.	.	8.C/L	f	8.e/L	f	8.cc\L	f	8.e/L	f	8.cc\L	f	8.g/L	f	8.cc\L	f	8.ee\L	f	8.ccc\L	f
16C/Jk	_ 5 _	.	16G/Jk	.	16eJk 16G/	.	16g/Jk	.	.	.	.	.	.	.	.	.	.	.	.	.	16C/Jk	.	16e/Jk	.	16cc\Jk	.	16e/Jk	.	16cc\Jk	.	16g/Jk	.	16cc\Jk	.	16ee\Jk	.	16gg\Jk	.
*	*	*	*	*	*	*	*	*	*	*	*	*	*	*	*	*	*	*	*	*	*	*	*	*	*	*	*	*	*	*	*	*	*	*	*	*	*2\right	*
*	*	*	*	*	*	*	*tremolo	*	*	*	*	*	*	*	*	*	*	*	*	*	*	*	*	*	*	*	*	*	*	*	*	*	*	*	*	*	*tremolo	*
!	!	!	!	!	!	!	!LO:TX:b:t=....	!	!	!	!	!	!	!	!	!	!	!	!	!	!	!	!	!	!	!	!	!	!	!	!	!	!	!	!	!	!LO:TX:a:t=....	!
4C/	_ 5 _	.	8G'/L	.	8eL 8G/	.	8g'/L	.	.	.	.	.	.	.	.	.	.	.	.	.	4C/	.	4e/	.	4cc\	.	4e/	.	4cc\	.	8g'/L	.	8cc'\L	.	4ee\	.	8gg'\L	.
.	.	.	(8c/	.	(8e/	.	8g'/	.	.	.	.	.	.	.	.	.	.	.	.	.	.	.	.	.	.	.	.	.	.	.	(8cc/	.	(8ee\	.	.	.	8gg'\	.
4r	x	.	8B/	.	8d/	.	8g'/	.	.	.	.	.	.	.	.	.	.	.	.	.	4r	.	4r	.	4r	.	4r	.	4r	.	8b/	.	8dd\	.	4r	.	8gg'\	.
.	.	.	8c/J)	.	8e/J)	.	8g'/J	.	.	.	.	.	.	.	.	.	.	.	.	.	.	.	.	.	.	.	.	.	.	.	8cc/J)	.	8ee\J)	.	.	.	8gg'\J	.
*	*	*	*	*	*	*	*Xtremolo	*	*	*	*	*	*	*	*	*	*	*	*	*	*	*	*	*	*	*	*	*	*	*	*	*	*	*	*	*	*Xtremolo	*
=2	=2	=2	=2	=2	=2	=2	=2	=2	=2	=2	=2	=2	=2	=2	=2	=2	=2	=2	=2	=2	=2	=2	=2	=2	=2	=2	=2	=2	=2	=2	=2	=2	=2	=2	=2	=2	=2	=2
*	*	*	*	*	*^	*	*	*	*	*	*	*	*	*	*	*	*	*	*	*	*	*	*	*	*	*	*	*	*	*	*	*	*	*	*	*	*	*
8.BB/L	6 5 3	.	8.d\L	.	8.fL 8.G/	4ryy	.	8.ddL 8.g 8.B/	.	.	.	.	.	.	.	.	.	.	.	.	.	8.GG/L	.	8.g/L	.	8.dd\L	.	8.g/L	.	8.dd\L	.	8.b\L	.	8.dd\L	.	8.ff\L	.	8.ddd\L	.
16BB/Jk	6_	.	16d\Jk	.	16fJk 16G/	.	.	16g/Jk	.	.	.	.	.	.	.	.	.	.	.	.	.	16GG/Jk	.	16g/Jk	.	16dd\Jk	.	16g/Jk	.	16dd\Jk	.	16b\Jk	.	16dd\Jk	.	16ff\Jk	.	16gg\Jk	.
*	*	*	*	*	*	*	*	*tremolo	*	*	*	*	*	*	*	*	*	*	*	*	*	*	*	*	*	*	*	*	*	*	*	*	*	*	*	*	*	*tremolo	*
!	!	!	!	!	!	!	!	!LO:TX:b:t=....	!	!	!	!	!	!	!	!	!	!	!	!	!	!	!	!	!	!	!	!	!	!	!	!	!	!	!	!	!	!LO:TX:a:t=....	!
4BB/	.	.	8d'\L	.	8f/L	4G\	.	8g'/L	.	.	.	.	.	.	.	.	.	.	.	.	.	4GG/	.	4g/	.	4dd\	.	4g/	.	4dd\	.	8b'\L	.	8dd'\L	.	4ff\	.	8gg'\L	.
.	.	.	(8d\	.	(<8f/	.	.	8g'/	.	.	.	.	.	.	.	.	.	.	.	.	.	.	.	.	.	.	.	.	.	.	.	(8dd\	.	(8ff\	.	.	.	8gg'\	.
4r	.	.	8c\	.	8e/	4ryy	.	8g'/	.	.	.	.	.	.	.	.	.	.	.	.	.	4r	.	4r	.	4r	.	4r	.	4r	.	8cc\	.	8ee\	.	4r	.	8gg'\	.
.	.	.	8d\J)	.	8f/J)	.	.	8g'/J	.	.	.	.	.	.	.	.	.	.	.	.	.	.	.	.	.	.	.	.	.	.	.	8dd\J)	.	8ff\J)	.	.	.	8gg'\J	.
*	*	*	*	*	*	*	*	*Xtremolo	*	*	*	*	*	*	*	*	*	*	*	*	*	*	*	*	*	*	*	*	*	*	*	*	*	*	*	*	*	*Xtremolo	*
*	*	*	*	*	*v	*v	*	*	*	*	*	*	*	*	*	*	*	*	*	*	*	*	*	*	*	*	*	*	*	*	*	*	*	*	*	*	*	*	*
=3	=3	=3	=3	=3	=3	=3	=3	=3	=3	=3	=3	=3	=3	=3	=3	=3	=3	=3	=3	=3	=3	=3	=3	=3	=3	=3	=3	=3	=3	=3	=3	=3	=3	=3	=3	=3	=3	=3
4C/	5_ 3_	.	4G/	.	4g/	.	8.ee\L	.	.	.	.	.	.	.	.	.	.	2.r	.	.	8C/	.	8e/	.	8cc\	.	4cc\	.	4ee\	.	4cc\	.	4ee\	.	4gg\	.	4eee\	.
.	.	.	.	.	.	.	.	.	.	.	.	.	.	.	.	.	.	.	.	.	8r	.	8r	.	8r	.	.	.	.	.	.	.	.	.	.	.	.	.
.	.	.	.	.	.	.	16gg\Jk	.	.	.	.	.	.	.	.	.	.	.	.	.	.	.	.	.	.	.	.	.	.	.	.	.	.	.	.	.	.	.
4c\	.	.	8.G/L	.	8.g/L	.	8.ee\L	.	.	.	.	.	.	.	.	.	.	.	.	.	8C/	.	8e/	.	8cc\	.	4cc\	.	4ee\	.	4cc\	.	4ee\	.	8.gg\L	.	8.eee\L	.
.	.	.	.	.	.	.	.	.	.	.	.	.	.	.	.	.	.	.	.	.	8r	.	8r	.	8r	.	.	.	.	.	.	.	.	.	.	.	.	.
.	.	.	16G/K	.	16e/	.	16cc\K	.	.	.	.	.	.	.	.	.	.	.	.	.	.	.	.	.	.	.	.	.	.	.	.	.	.	.	16ee\K	.	16ccc\K	.
4G\	5 3	.	8.G/	.	8.f/	.	8.dd\	.	.	.	.	.	.	.	.	.	.	.	.	.	8GG/	.	8g/	.	8dd\	.	4g/	.	4dd\	.	8g/L	.	4dd\	.	8.ff\	.	8.ddd\	.
.	.	.	.	.	.	.	.	.	.	.	.	.	.	.	.	.	.	.	.	.	8r	.	8r	.	8r	.	.	.	.	.	8f/J	.	.	.	.	.	.	.
.	.	.	16G/Jk	.	16d/Jk	.	16b\Jk	.	.	.	.	.	.	.	.	.	.	.	.	.	.	.	.	.	.	.	.	.	.	.	.	.	.	.	16dd\Jk	.	16bb\Jk	.
!	!	!	!	!	!LO:LB:g=original	!	!	!	!	!	!	!	!	!	!	!	!	!	!	!	!	!	!	!	!	!	!	!	!	!	!	!	!	!	!	!	!	!
=4	=4	=4	=4	=4	=4	=4	=4	=4	=4	=4	=4	=4	=4	=4	=4	=4	=4	=4	=4	=4	=4	=4	=4	=4	=4	=4	=4	=4	=4	=4	=4	=4	=4	=4	=4	=4	=4	=4
!	!	!	!	!	!	!	!	!	!	!	!	!	!	!	!	!	!	!LO:TX:a:i:t=dolce	!	!	!	!	!	!	!	!	!	!	!	!	!	!	!	!	!	!	!	!
!	!	!	!	!	!	!	!	!	!	!	!	!	!	!	!	!	!	!LO:TX:a:i:t=Solo	!	!	!	!	!	!	!	!	!	!	!	!	!	!	!	!	!	!	!	!
4C/	8_ 5_ 3_	.	4c 4C/	.	4e 4G/	.	4cc\	.	.	.	.	.	.	.	.	.	.	4r	.	.	4C/	.	4e/	.	4cc\	.	4e/	.	4cc\	.	4e/	.	4cc\	.	4ee\	.	4ccc\	.
4C/	.	.	4c 4C/	.	4e 4G/	.	4c/	.	.	.	.	.	.	.	.	.	.	8r	.	.	4C/	.	4e/	.	4cc\	.	4e/	.	4cc\	.	4e/	.	4cc\	.	4ee\	.	4cc\	.
.	.	.	.	.	.	.	.	.	.	.	.	.	.	.	.	.	.	8g\	De-	.	.	.	.	.	.	.	.	.	.	.	.	.	.	.	.	.	.	.
4r	x	.	4r	.	4r	.	4r	.	.	.	.	.	.	.	.	.	.	8a\	-us	.	4r	.	4r	.	4r	.	4r	.	4r	.	4r	.	4r	.	4r	.	4r	.
.	.	.	.	.	.	.	.	.	.	.	.	.	.	.	.	.	.	8g\	tu-	.	.	.	.	.	.	.	.	.	.	.	.	.	.	.	.	.	.	.
!LO:LB:g=original	!	!	!LO:LB:g=original	!	!	!	!LO:LB:g=original	!	!	!	!	!	!	!	!	!	!	!	!	!	!	!	!	!	!	!	!	!	!	!	!	!	!	!	!	!	!	!
=5	=5	=5	=5	=5	=5	=5	=5	=5	=5	=5	=5	=5	=5	=5	=5	=5	=5	=5	=5	=5	=5	=5	=5	=5	=5	=5	=5	=5	=5	=5	=5	=5	=5	=5	=5	=5	=5	=5
*	*	*	*	*	*tremolo	*	*tremolo	*	*	*	*	*	*	*	*	*	*	*	*	*	*	*	*	*	*	*	*	*	*	*	*	*	*	*	*	*	*	*
!LO:TX:a:i:t=Tasto.	!	!	!	!LO:DY:t=p.:rj	!	!LO:DY:rj	!	!	!	!	!	!	!	!	!	!	!	!	!	!	!LO:TX:a:t=14.	!	!LO:TX:a:t=3	!	!LO:TX:a:t=3	!	!LO:TX:a:t=3	!	!LO:TX:a:t=3	!	!LO:TX:a:t=3	!	!LO:TX:a:t=3	!	!LO:TX:a:t=3	!	!LO:TX:a:t=3	!
2C/	.	p	2G/	p	(8c/L	p	(8e/L	p	0.r	.	.	0.r	.	.	0.r	.	.	(4ee^\	-o-	.	0.r	.	1.r	.	1.r	.	1.r	.	1.r	.	1.r	.	1.r	.	1.r	.	1.r	.
.	.	.	.	.	8G/	.	8G/	.	.	.	.	.	.	.	.	.	.	.	.	.	.	.	.	.	.	.	.	.	.	.	.	.	.	.	.	.	.	.
.	.	.	.	.	8c/	.	8e/	.	.	.	.	.	.	.	.	.	.	8ff\)	.	.	.	.	.	.	.	.	.	.	.	.	.	.	.	.	.	.	.	.
.	.	.	.	.	8G/J)	.	8G/J)	.	.	.	.	.	.	.	.	.	.	8ee\	-rum	.	.	.	.	.	.	.	.	.	.	.	.	.	.	.	.	.	.	.
*	*	*	*	*	*Xtremolo	*	*Xtremolo	*	*	*	*	*	*	*	*	*	*	*	*	*	*	*	*	*	*	*	*	*	*	*	*	*	*	*	*	*	*	*
4GG/	.	.	(8B/L	.	(8d/L	.	(8f/L	.	.	.	.	.	.	.	.	.	.	(16ee\LL	mi-	.	.	.	.	.	.	.	.	.	.	.	.	.	.	.	.	.	.	.
.	.	.	.	.	.	.	.	.	.	.	.	.	.	.	.	.	.	16dd\JJ)	.	.	.	.	.	.	.	.	.	.	.	.	.	.	.	.	.	.	.	.
.	.	.	8G/J)	.	8G/J)	.	8G/J)	.	.	.	.	.	.	.	.	.	.	(16a\LL	-li-	.	.	.	.	.	.	.	.	.	.	.	.	.	.	.	.	.	.	.
.	.	.	.	.	.	.	.	.	.	.	.	.	.	.	.	.	.	16b\JJ)	.	.	.	.	.	.	.	.	.	.	.	.	.	.	.	.	.	.	.	.
=6	=6	=6	=6	=6	=6	=6	=6	=6	=6	=6	=6	=6	=6	=6	=6	=6	=6	=6	=6	=6	=6	=6	=6	=6	=6	=6	=6	=6	=6	=6	=6	=6	=6	=6	=6	=6	=6	=6
4C/	.	.	4G/	.	(8c/L	.	(8e/L	.	.	.	.	.	.	.	.	.	.	(4cc\	-tum	.	.	.	.	.	.	.	.	.	.	.	.	.	.	.	.	.	.	.
.	.	.	.	.	8G/J)	.	8G/J)	.	.	.	.	.	.	.	.	.	.	.	.	.	.	.	.	.	.	.	.	.	.	.	.	.	.	.	.	.	.	.
4C/	.	.	4G/	.	8c/L	.	8e/L	.	.	.	.	.	.	.	.	.	.	8g\)	.	.	.	.	.	.	.	.	.	.	.	.	.	.	.	.	.	.	.	.
.	.	.	.	.	8e/	.	8cc/	.	.	.	.	.	.	.	.	.	.	8cc\	ſorſ	.	.	.	.	.	.	.	.	.	.	.	.	.	.	.	.	.	.	.
4r	.	.	4r	.	8d/	.	8b/	.	.	.	.	.	.	.	.	.	.	8b\	et	.	.	.	.	.	.	.	.	.	.	.	.	.	.	.	.	.	.	.
.	.	.	.	.	8e/J	.	8cc/J	.	.	.	.	.	.	.	.	.	.	8cc\	co-	.	.	.	.	.	.	.	.	.	.	.	.	.	.	.	.	.	.	.
!	!	!	!	!	!	!	!	!	!	!	!	!	!	!	!	!	!	!LO:LB:g=original	!	!	!	!	!	!	!	!	!	!	!	!	!	!	!	!	!	!	!	!
=7	=7	=7	=7	=7	=7	=7	=7	=7	=7	=7	=7	=7	=7	=7	=7	=7	=7	=7	=7	=7	=7	=7	=7	=7	=7	=7	=7	=7	=7	=7	=7	=7	=7	=7	=7	=7	=7	=7
*	*	*	*	*	*tremolo	*	*tremolo	*	*	*	*	*	*	*	*	*	*	*	*	*	*	*	*	*	*	*	*	*	*	*	*	*	*	*	*	*	*	*
2F\	.	.	2A/	.	(8f/L	.	(8a\L	.	.	.	.	.	.	.	.	.	.	4.dd\	-ro-	.	.	.	2.r	.	2.r	.	2.r	.	2.r	.	2.r	.	2.r	.	2.r	.	2.r	.
.	.	.	.	.	8a/	.	8dd\	.	.	.	.	.	.	.	.	.	.	.	.	.	.	.	.	.	.	.	.	.	.	.	.	.	.	.	.	.	.	.
.	.	.	.	.	8f/	.	8a\	.	.	.	.	.	.	.	.	.	.	.	.	.	.	.	.	.	.	.	.	.	.	.	.	.	.	.	.	.	.	.
.	.	.	.	.	8a/	.	8dd\J)	.	.	.	.	.	.	.	.	.	.	8cc\	-na	.	.	.	.	.	.	.	.	.	.	.	.	.	.	.	.	.	.	.
*	*	*	*	*	*	*	*Xtremolo	*	*	*	*	*	*	*	*	*	*	*	*	*	*	*	*	*	*	*	*	*	*	*	*	*	*	*	*	*	*	*
4F\	.	.	4A/	.	8f/	.	(8a\L	.	.	.	.	.	.	.	.	.	.	8b\	prae-	.	.	.	.	.	.	.	.	.	.	.	.	.	.	.	.	.	.	.
.	.	.	.	.	8a/J)	.	8dd#X\J)	.	.	.	.	.	.	.	.	.	.	8a\	-mi-	.	.	.	.	.	.	.	.	.	.	.	.	.	.	.	.	.	.	.
*	*	*	*	*	*Xtremolo	*	*	*	*	*	*	*	*	*	*	*	*	*	*	*	*	*	*	*	*	*	*	*	*	*	*	*	*	*	*	*	*	*
=8	=8	=8	=8	=8	=8	=8	=8	=8	=8	=8	=8	=8	=8	=8	=8	=8	=8	=8	=8	=8	=8	=8	=8	=8	=8	=8	=8	=8	=8	=8	=8	=8	=8	=8	=8	=8	=8	=8
!	!	!	!	!	!LO:ACC:color=grey	!	!	!	!	!	!	!	!	!	!	!	!	!	!	!	!	!	!	!	!	!	!	!	!	!	!	!	!	!	!	!	!	!LO:DY:t=fr.
8E\	.	.	8B/	.	8g#/	.	8ee^<\	.	.	.	.	.	.	.	.	.	.	4ee\	-um	.	.	.	4r	f	4r	f	4r	f	4r	f	4r	f	4r	f	4r	f	4r	f
!	!	!	!	!	!	!LO:DY:t=fr&colon;	!	!	!	!	!	!	!	!	!	!	!	!	!	!	!	!	!	!	!	!	!	!	!	!	!	!	!	!	!	!	!	!
8r	.	f	8r	f	8r	f	8r	.	.	.	.	.	.	.	.	.	.	.	.	.	.	.	.	.	.	.	.	.	.	.	.	.	.	.	.	.	.	.
8E\	.	.	8B/	.	8g# 8B/	.	8ee 8b 8g#X/	.	.	.	.	.	.	.	.	.	.	8r	.	.	.	.	8e/	.	8ee\	.	8e/	.	8ee\	.	8g#X/	.	8ee\	.	8gg#X\	.	8eee\	.
8r	.	.	8r	.	8r	.	8r	.	.	.	.	.	.	.	.	.	.	8gn\	lau-	.	.	.	8r	.	8r	.	8r	.	8r	.	8r	.	8r	.	8r	.	8r	.
4r	.	.	4r	.	4r	.	4r	.	.	.	.	.	.	.	.	.	.	8a\	-des	.	.	.	4r	.	4r	.	4r	.	4r	.	4r	.	4r	.	4r	.	4r	.
!	!	!	!	!LO:DY:t=p.	!	!	!	!	!	!	!	!	!	!	!	!	!	!	!	!	!	!	!	!	!	!	!	!	!	!	!	!	!	!	!	!	!	!
.	.	p	.	p	.	.	.	.	.	.	.	.	.	.	.	.	.	8g\	ca-	.	.	.	.	.	.	.	.	.	.	.	.	.	.	.	.	.	.	.
!	!	!	!	!	!LO:LB:g=original	!	!	!	!	!	!	!	!	!	!	!	!	!	!	!	!	!	!	!	!LO:LB:g=original	!	!	!	!	!	!	!	!	!	!	!	!	!
=9	=9	=9	=9	=9	=9	=9	=9	=9	=9	=9	=9	=9	=9	=9	=9	=9	=9	=9	=9	=9	=9	=9	=9	=9	=9	=9	=9	=9	=9	=9	=9	=9	=9	=9	=9	=9	=9	=9
*	*	*	*	*	*tremolo	*	*tremolo	*	*	*	*	*	*	*	*	*	*	*	*	*	*	*	*	*	*	*	*	*	*	*	*	*	*	*	*	*	*	*
!LO:TX:a:i:t=Solo	!	!	!	!	!	!LO:DY:rj	!	!LO:DY:rj	!	!	!	!	!	!	!	!	!	!	!	!	!	!	!LO:TX:a:t=10.	!	!LO:TX:a:t=10.	!	!LO:TX:a:t=7.	!	!LO:TX:a:t=7.	!	!LO:TX:a:t=5	!	!LO:TX:a:t=5.	!	!LO:TX:a:t=7	!	!LO:TX:a:t=5	!
2C/	.	.	2G/	.	(>8c/L	p	(8e/L	p	0.r	.	.	0.r	.	.	0.r	.	.	(4ee^\	-nen-	.	0.r	.	0.r	.	0.r	.	0.r	.	0.r	.	0.r	.	0.r	.	0.r	.	0.r	.
.	.	.	.	.	8Gn/	.	8Gn/	.	.	.	.	.	.	.	.	.	.	.	.	.	.	.	.	.	.	.	.	.	.	.	.	.	.	.	.	.	.	.
.	.	.	.	.	8c/	.	8e/	.	.	.	.	.	.	.	.	.	.	8ff\)	.	.	.	.	.	.	.	.	.	.	.	.	.	.	.	.	.	.	.	.
.	.	.	.	.	8Gn/J)	.	8Gn/J)	.	.	.	.	.	.	.	.	.	.	8ee\	-teſ	.	.	.	.	.	.	.	.	.	.	.	.	.	.	.	.	.	.	.
*	*	*	*	*	*Xtremolo	*	*Xtremolo	*	*	*	*	*	*	*	*	*	*	*	*	*	*	*	*	*	*	*	*	*	*	*	*	*	*	*	*	*	*	*
4GG/	.	.	(8B/L	.	(>8d/L	.	(8f/L	.	.	.	.	.	.	.	.	.	.	(16ee\LL	Mar-	.	.	.	.	.	.	.	.	.	.	.	.	.	.	.	.	.	.	.
.	.	.	.	.	.	.	.	.	.	.	.	.	.	.	.	.	.	16dd\JJ)	.	.	.	.	.	.	.	.	.	.	.	.	.	.	.	.	.	.	.	.
.	.	.	8G/J)	.	8G/J)	.	8G/J)	.	.	.	.	.	.	.	.	.	.	(16a\LL	-ti-	.	.	.	.	.	.	.	.	.	.	.	.	.	.	.	.	.	.	.
.	.	.	.	.	.	.	.	.	.	.	.	.	.	.	.	.	.	16b\JJ)	.	.	.	.	.	.	.	.	.	.	.	.	.	.	.	.	.	.	.	.
!	!	!	!	!	!	!	!LO:LB:g=original	!	!	!	!	!	!	!	!	!	!	!LO:LB:g=original	!	!	!	!	!	!	!	!	!	!	!	!	!	!	!	!	!	!	!	!
=10	=10	=10	=10	=10	=10	=10	=10	=10	=10	=10	=10	=10	=10	=10	=10	=10	=10	=10	=10	=10	=10	=10	=10	=10	=10	=10	=10	=10	=10	=10	=10	=10	=10	=10	=10	=10	=10	=10
4C/	.	.	4G/	.	(8c/L	.	(8e/L	.	.	.	.	.	.	.	.	.	.	(4cc\	-riſ	.	.	.	.	.	.	.	.	.	.	.	.	.	.	.	.	.	.	.
.	.	.	.	.	8G/J)	.	8G/J)	.	.	.	.	.	.	.	.	.	.	.	.	.	.	.	.	.	.	.	.	.	.	.	.	.	.	.	.	.	.	.
4C/	.	.	4G/	.	8c/L	.	8e/L	.	.	.	.	.	.	.	.	.	.	8g\)	.	.	.	.	.	.	.	.	.	.	.	.	.	.	.	.	.	.	.	.
.	.	.	.	.	8e/	.	8cc/	.	.	.	.	.	.	.	.	.	.	8cc\	ab-	.	.	.	.	.	.	.	.	.	.	.	.	.	.	.	.	.	.	.
4r	.	.	4r	.	8d/	.	8b/	.	.	.	.	.	.	.	.	.	.	8b\	-sol-	.	.	.	.	.	.	.	.	.	.	.	.	.	.	.	.	.	.	.
.	.	.	.	.	8e/J	.	8cc/J	.	.	.	.	.	.	.	.	.	.	8cc\	-ve	.	.	.	.	.	.	.	.	.	.	.	.	.	.	.	.	.	.	.
=11	=11	=11	=11	=11	=11	=11	=11	=11	=11	=11	=11	=11	=11	=11	=11	=11	=11	=11	=11	=11	=11	=11	=11	=11	=11	=11	=11	=11	=11	=11	=11	=11	=11	=11	=11	=11	=11	=11
*	*	*	*	*	*tremolo	*	*tremolo	*	*	*	*	*	*	*	*	*	*	*	*	*	*	*	*	*	*	*	*	*	*	*	*	*	*	*	*	*	*	*
2F\	.	.	2A/	.	(8f/L	.	(8a/L	.	.	.	.	.	.	.	.	.	.	4.ee\	ne-	.	.	.	.	.	.	.	.	.	.	.	.	.	.	.	.	.	.	.
.	.	.	.	.	8a/	.	8dd/	.	.	.	.	.	.	.	.	.	.	.	.	.	.	.	.	.	.	.	.	.	.	.	.	.	.	.	.	.	.	.
.	.	.	.	.	8f/	.	8a/	.	.	.	.	.	.	.	.	.	.	.	.	.	.	.	.	.	.	.	.	.	.	.	.	.	.	.	.	.	.	.
.	.	.	.	.	8a/J)	.	8dd/J)	.	.	.	.	.	.	.	.	.	.	8dd\	-xu	.	.	.	.	.	.	.	.	.	.	.	.	.	.	.	.	.	.	.
*	*	*	*	*	*Xtremolo	*	*Xtremolo	*	*	*	*	*	*	*	*	*	*	*	*	*	*	*	*	*	*	*	*	*	*	*	*	*	*	*	*	*	*	*
4G\	.	.	4G/	.	4f/	.	(8a/L	.	.	.	.	.	.	.	.	.	.	8a\	cri-	.	.	.	.	.	.	.	.	.	.	.	.	.	.	.	.	.	.	.
.	.	.	.	.	.	.	8b/J)	.	.	.	.	.	.	.	.	.	.	8b\	-mi-	.	.	.	.	.	.	.	.	.	.	.	.	.	.	.	.	.	.	.
!LO:LB:g=original	!	!	!	!	!	!	!	!	!	!	!	!	!	!	!	!	!	!	!	!	!	!	!	!	!	!	!	!	!	!	!	!	!	!	!	!	!	!
=12	=12	=12	=12	=12	=12	=12	=12	=12	=12	=12	=12	=12	=12	=12	=12	=12	=12	=12	=12	=12	=12	=12	=12	=12	=12	=12	=12	=12	=12	=12	=12	=12	=12	=12	=12	=12	=12	=12
*	*	*	*^	*	*	*	*	*	*	*	*	*	*	*	*	*	*	*	*	*	*	*	*	*	*	*	*	*	*	*	*	*	*	*	*	*	*	*
4C/	.	.	4G/	4ryy	.	4e/	.	8cc/L	.	.	.	.	.	.	.	.	.	.	4cc\	-niſ,	.	.	.	.	.	.	.	.	.	.	.	.	.	.	.	.	.	.	.
.	.	.	.	.	.	.	.	8g/J	.	.	.	.	.	.	.	.	.	.	.	.	.	.	.	.	.	.	.	.	.	.	.	.	.	.	.	.	.	.	.
*	*	*	*2\right	*	*	*tremolo	*	*tremolo	*	*	*	*	*	*	*	*	*	*	*	*	*	*	*	*	*	*	*	*	*	*	*	*	*	*	*	*	*	*	*
4C/	.	.	2G/	2E\	.	(8c/L	.	(8e/L	.	.	.	.	.	.	.	.	.	.	8r	.	.	.	.	.	.	.	.	.	.	.	.	.	.	.	.	.	.	.	.
.	.	.	.	.	.	8e/	.	8g/	.	.	.	.	.	.	.	.	.	.	8cc\	ab-	.	.	.	.	.	.	.	.	.	.	.	.	.	.	.	.	.	.	.
4r	.	.	.	.	.	8c/	.	8e/	.	.	.	.	.	.	.	.	.	.	8b\	-ſol-	.	.	.	.	.	.	.	.	.	.	.	.	.	.	.	.	.	.	.
.	.	.	.	.	.	8e/J)	.	8g/J)	.	.	.	.	.	.	.	.	.	.	8a\	-ve	.	.	.	.	.	.	.	.	.	.	.	.	.	.	.	.	.	.	.
!	!	!	!LO:LB:g=original	!	!	!	!	!	!	!	!	!	!	!	!	!	!	!	!LO:PB:g=original	!	!	!	!	!	!	!	!	!	!	!	!	!	!	!	!	!	!	!	!
=13	=13	=13	=13	=13	=13	=13	=13	=13	=13	=13	=13	=13	=13	=13	=13	=13	=13	=13	=13	=13	=13	=13	=13	=13	=13	=13	=13	=13	=13	=13	=13	=13	=13	=13	=13	=13	=13	=13	=13
4GG/	.	.	2.G/	2.F\	.	(>8d/L	.	8f/L	.	2.r	.	.	2.r	.	.	2.r	.	.	(4..g\	ne-	.	0.r	.	0.r	.	0.r	.	1.r	.	1.r	.	2.r	.	2.r	.	1.r	.	2.r	.
.	.	.	.	.	.	8B/	.	8g/	.	.	.	.	.	.	.	.	.	.	.	.	.	.	.	.	.	.	.	.	.	.	.	.	.	.	.	.	.	.	.
4r	.	.	.	.	.	8d/	.	8f/	.	.	.	.	.	.	.	.	.	.	.	.	.	.	.	.	.	.	.	.	.	.	.	.	.	.	.	.	.	.	.
.	.	.	.	.	.	8B/	.	8g/	.	.	.	.	.	.	.	.	.	.	.	.	.	.	.	.	.	.	.	.	.	.	.	.	.	.	.	.	.	.	.
.	.	.	.	.	.	.	.	.	.	.	.	.	.	.	.	.	.	.	16a\)	.	.	.	.	.	.	.	.	.	.	.	.	.	.	.	.	.	.	.	.
4GG/	.	.	.	.	.	8d/	.	8f/	.	.	.	.	.	.	.	.	.	.	(16b\LL	-xu	.	.	.	.	.	.	.	.	.	.	.	.	.	.	.	.	.	.	.
.	.	.	.	.	.	.	.	.	.	.	.	.	.	.	.	.	.	.	16cc\JJ)	.	.	.	.	.	.	.	.	.	.	.	.	.	.	.	.	.	.	.	.
!	!	!	!	!	!	!	!	!	!	!	!	!	!	!	!	!	!	!	!LO:N:vis=8	!	!	!	!	!	!	!	!	!	!	!	!	!	!	!	!	!	!	!	!
.	.	.	.	.	.	8B/J)	.	8g/J	.	.	.	.	.	.	.	.	.	.	16ee\	cri-	.	.	.	.	.	.	.	.	.	.	.	.	.	.	.	.	.	.	.
!	!	!	!	!	!	!	!	!	!	!	!	!	!	!	!	!	!	!	!LO:N:vis=8	!	!	!	!	!	!	!	!	!	!	!	!	!	!	!	!	!	!	!	!
.	.	.	.	.	.	.	.	.	.	.	.	.	.	.	.	.	.	.	16dd\	-mi-	.	.	.	.	.	.	.	.	.	.	.	.	.	.	.	.	.	.	.
!	!	!	!	!	!	!LO:LB:g=original	!	!	!	!	!	!	!	!	!	!	!	!	!	!	!	!	!	!	!	!	!	!	!	!	!	!LO:LB:g=original	!	!LO:LB:g=original	!	!	!	!	!
=14	=14	=14	=14	=14	=14	=14	=14	=14	=14	=14	=14	=14	=14	=14	=14	=14	=14	=14	=14	=14	=14	=14	=14	=14	=14	=14	=14	=14	=14	=14	=14	=14	=14	=14	=14	=14	=14	=14	=14
!	!	!	!	!	!LO:DY:rj:t=mfr.	!	!LO:DY:rj	!	!LO:DY:rj	!	!	!	!	!	!	!	!	!	!	!	!	!	!	!	!	!	!	!	!	!	!	!	!	!	!	!	!	!	!
4C/	.	.	2.G/	2.E\	mf	(8c/L	mf	(8e/L	mf	4r	.	.	4r	.	.	4r	.	.	4cc\	-nis	.	.	.	.	.	.	.	.	.	.	.	4r	.	4r	p	.	.	4r	.
.	.	.	.	.	.	8e/	.	8g/	.	.	.	.	.	.	.	.	.	.	.	.	.	.	.	.	.	.	.	.	.	.	.	.	.	.	.	.	.	.	.
*	*	*	*	*	*	*	*	*	*	*	*	*	*	*	*	*	*	*	*	*	*	*	*	*	*	*	*	*	*	*	*	*	*	*2\right	*	*	*	*	*
!	!	!	!	!	!	!	!	!	!	!	!	!LO:DY:a	!	!	!LO:DY:a:t=mfr.	!	!	!LO:DY:a:t=mfr.	!	!	!	!	!	!	!	!	!	!	!	!	!	!	!LO:DY:t=p.	!	!	!	!	!	!
4C/	.	.	.	.	.	8c/	.	8e/	.	8r	.	mf	8r	.	mf	8r	.	mf	8r	.	.	.	.	.	.	.	.	.	.	.	.	2gn/	p	2gg\	.	.	.	8r	p
!	!	!	!	!	!	!	!	!	!	!	!	!	!	!	!	!	!	!	!LO:TX:a:i:t=Tutti	!	!LO:DY:b:rj	!	!	!	!	!	!	!	!	!	!	!	!	!	!	!	!	!LO:TX:b:i:t=dolce	!
.	.	.	.	.	.	8e/	.	8g/	.	8C/	ab-	.	8c\	ab-	.	8g\	ab-	.	8cc\	ab-	mf	.	.	.	.	.	.	.	.	.	.	.	.	.	.	.	.	8ccc'\L	.
4r	.	.	.	.	.	8c/	.	8e/	.	8C/	-ſol-	.	8c\	-ſol-	.	8g\	-ſol-	.	8b\	-ſol-	.	.	.	.	.	.	.	.	.	.	.	.	.	.	.	.	.	8bb'\	.
.	.	.	.	.	.	8e/J)	.	8g/J)	.	8C/	-ve	.	8c\	-ve	.	8g\	-ve	.	8a\	-ve	.	.	.	.	.	.	.	.	.	.	.	.	.	.	.	.	.	8aa'\J	.
!	!	!	!	!	!	!	!	!	!	!	!	!	!	!	!	!	!	!	!	!	!	!	!	!	!	!	!	!	!	!	!	!	!	!	!	!	!	!LO:LB:g=original	!
=15	=15	=15	=15	=15	=15	=15	=15	=15	=15	=15	=15	=15	=15	=15	=15	=15	=15	=15	=15	=15	=15	=15	=15	=15	=15	=15	=15	=15	=15	=15	=15	=15	=15	=15	=15	=15	=15	=15	=15
4GG/	.	.	2.G/	2.F\	.	(>8d/L	.	(8f/L	.	4.GG/	ne-	.	4.d\	ne-	.	4.f\	ne-	.	(4..g\	ne-	.	.	.	.	.	.	.	2.r	.	2.r	.	2.g/	.	2.gg\	.	2.r	.	[4gg\	.
.	.	.	.	.	.	8B/	.	8g/	.	.	.	.	.	.	.	.	.	.	.	.	.	.	.	.	.	.	.	.	.	.	.	.	.	.	.	.	.	.	.
4r	.	.	.	.	.	8d/	.	8f/	.	.	.	.	.	.	.	.	.	.	.	.	.	.	.	.	.	.	.	.	.	.	.	.	.	.	.	.	.	16gg\LL]	.
.	.	.	.	.	.	.	.	.	.	.	.	.	.	.	.	.	.	.	.	.	.	.	.	.	.	.	.	.	.	.	.	.	.	.	.	.	.	16aa'\	.
.	.	.	.	.	.	8B/	.	8g/	.	8GG/	-xu	.	8d\	-xu	.	8f\	-xu	.	.	.	.	.	.	.	.	.	.	.	.	.	.	.	.	.	.	.	.	16bb'\	.
.	.	.	.	.	.	.	.	.	.	.	.	.	.	.	.	.	.	.	16a\)	.	.	.	.	.	.	.	.	.	.	.	.	.	.	.	.	.	.	16ccc'\JJ	.
4GG/	.	.	.	.	.	8d/	.	8f/	.	8GG/	cri-	.	8G/	cri-	.	8g\	cri-	.	(16b\LL	-xu	.	.	.	.	.	.	.	.	.	.	.	.	.	.	.	.	.	(8eee\L	.
.	.	.	.	.	.	.	.	.	.	.	.	.	.	.	.	.	.	.	16cc\JJ)	.	.	.	.	.	.	.	.	.	.	.	.	.	.	.	.	.	.	.	.
!	!	!	!	!	!	!	!	!	!	!	!	!	!	!	!	!	!	!	!LO:N:vis=8	!	!	!	!	!	!	!	!	!	!	!	!	!	!	!	!	!	!	!	!
.	.	.	.	.	.	8B/J)	.	8g/J)	.	8GG/	-mi-	.	8f\	-mi-	.	8g\	-mi-	.	16ee\	cri-	.	.	.	.	.	.	.	.	.	.	.	.	.	.	.	.	.	8ddd\J)	.
!	!	!	!	!	!	!	!	!	!	!	!	!	!	!	!	!	!	!	!LO:N:vis=8	!	!	!	!	!	!	!	!	!	!	!	!	!	!	!	!	!	!	!	!
.	.	.	.	.	.	.	.	.	.	.	.	.	.	.	.	.	.	.	16dd\	-mi-	.	.	.	.	.	.	.	.	.	.	.	.	.	.	.	.	.	.	.
*	*	*	*	*	*	*Xtremolo	*	*Xtremolo	*	*	*	*	*	*	*	*	*	*	*	*	*	*	*	*	*	*	*	*	*	*	*	*	*	*	*	*	*	*	*
*	*	*	*v	*v	*	*	*	*	*	*	*	*	*	*	*	*	*	*	*	*	*	*	*	*	*	*	*	*	*	*	*	*	*	*	*	*	*	*	*
!	!	!	!	!	!	!	!LO:LB:g=original	!	!LO:LB:g=original	!	!	!LO:LB:g=original	!	!	!LO:LB:g=original	!	!	!LO:LB:g=original	!	!	!	!	!	!	!	!	!LO:LB:g=original	!	!LO:LB:g=original	!	!	!	!	!	!LO:LB:g=original	!	!	!
=16	=16	=16	=16	=16	=16	=16	=16	=16	=16	=16	=16	=16	=16	=16	=16	=16	=16	=16	=16	=16	=16	=16	=16	=16	=16	=16	=16	=16	=16	=16	=16	=16	=16	=16	=16	=16	=16	=16
*	*	*	*	*	*	*	*^	*	*	*	*	*	*	*	*	*	*	*	*	*	*	*	*	*	*	*	*	*	*	*	*	*	*	*	*	*	*	*
!	!	!	!	!LO:DY:t=p.:rj	!	!	!LO:TX:a:i:t=Solo.	!	!	!	!	!	!	!	!	!	!	!	!	!	!	!	!	!	!	!	!	!	!LO:DY:t=pp.	!	!	!	!	!	!LO:DY:rj	!	!	!	!LO:DY:rj:t=pp.
8C/L	.	p	8c/L	p	8G/L	.	8c/	8c\L	.	4C/	-nis	.	4e\	-niſ	.	4g\	-niſ	.	4cc\	-nis	.	.	.	.	.	.	.	8r	pp	8r	pp	8g/L	pp	8ee\L	pp	8r	p	8ccc\L	pp
8C/	.	.	8c/	.	8e/	p	4ee^/	8g 8e\	.	.	.	.	.	.	.	.	.	.	.	.	.	.	.	.	.	.	.	8e/L	.	8cc\L	.	8g/	.	8ee\	.	8ee\L	.	8ccc\	.
8C/J	.	.	8c/J	.	8e/J	.	.	8gJ 8e\	.	4r	.	.	4r	.	.	4r	.	.	4r	.	.	.	.	.	.	.	.	8e/J	.	8cc\J	.	8g/J	.	8ee\J	.	8ee\J	.	8ccc\J	.
8r	.	.	8r	.	8r	.	(16dd/LL	8r	.	.	.	.	.	.	.	.	.	.	.	.	.	.	.	.	.	.	.	8r	.	8r	.	8r	.	8r	.	8r	.	8r	.
.	.	.	.	.	.	.	16cc/JJ)	.	.	.	.	.	.	.	.	.	.	.	.	.	.	.	.	.	.	.	.	.	.	.	.	.	.	.	.	.	.	.	.
4r	.	.	4r	.	4r	.	(16b/LL	4r	.	4r	.	.	4r	.	.	4r	.	.	4r	.	.	.	.	.	.	.	.	4r	.	4r	.	4r	.	4r	.	4r	.	4r	.
.	.	.	.	.	.	.	16a/	.	.	.	.	.	.	.	.	.	.	.	.	.	.	.	.	.	.	.	.	.	.	.	.	.	.	.	.	.	.	.	.
.	.	.	.	.	.	.	16g/	.	.	.	.	.	.	.	.	.	.	.	.	.	.	.	.	.	.	.	.	.	.	.	.	.	.	.	.	.	.	.	.
.	.	.	.	.	.	.	16f/JJ)	.	.	.	.	.	.	.	.	.	.	.	.	.	.	.	.	.	.	.	.	.	.	.	.	.	.	.	.	.	.	.	.
=17	=17	=17	=17	=17	=17	=17	=17	=17	=17	=17	=17	=17	=17	=17	=17	=17	=17	=17	=17	=17	=17	=17	=17	=17	=17	=17	=17	=17	=17	=17	=17	=17	=17	=17	=17	=17	=17	=17	=17
!	!	!	!	!	!	!	!	!	!	!LO:TX:a:t=12.	!	!	!LO:TX:a:t=12.	!	!	!LO:TX:a:t=12.	!	!	!LO:TX:a:t=2.	!	!	!	!	!	!	!	!	!	!	!	!	!	!	!	!	!	!	!	!
8r	.	.	8r	.	8r	.	8e/	8r	.	0.r	.	.	0.r	.	.	0.r	.	.	1.r	.	.	1.r	.	1.r	.	1.r	.	8r	.	8r	.	8r	.	8r	.	8r	.	8r	.
8C/L	.	.	8c/L	.	8e/L	.	4gg^/	8g\L	.	.	.	.	.	.	.	.	.	.	.	.	.	.	.	.	.	.	.	8e/L	.	8cc\L	.	8ee\L	.	8gg\L	.	8ee\L	.	8ccc\L	.
8C/J	.	.	8c/J	.	8e/J	.	.	8g\J	.	.	.	.	.	.	.	.	.	.	.	.	.	.	.	.	.	.	.	8e/J	.	8cc\J	.	8ee\J	.	8gg\J	.	8ee\J	.	8ccc\J	.
8r	.	.	8r	.	8r	.	(16ff/LL	8r	.	.	.	.	.	.	.	.	.	.	.	.	.	.	.	.	.	.	.	8r	.	8r	.	8r	.	8r	.	8r	.	8r	.
.	.	.	.	.	.	.	16ee/JJ)	.	.	.	.	.	.	.	.	.	.	.	.	.	.	.	.	.	.	.	.	.	.	.	.	.	.	.	.	.	.	.	.
4r	.	.	4r	.	4r	.	(16dd/LL	4r	.	.	.	.	.	.	.	.	.	.	.	.	.	.	.	.	.	.	.	4r	.	4r	.	4r	.	4r	.	4r	.	4r	.
.	.	.	.	.	.	.	16cc/	.	.	.	.	.	.	.	.	.	.	.	.	.	.	.	.	.	.	.	.	.	.	.	.	.	.	.	.	.	.	.	.
.	.	.	.	.	.	.	16b/	.	.	.	.	.	.	.	.	.	.	.	.	.	.	.	.	.	.	.	.	.	.	.	.	.	.	.	.	.	.	.	.
.	.	.	.	.	.	.	16a/JJ)	.	.	.	.	.	.	.	.	.	.	.	.	.	.	.	.	.	.	.	.	.	.	.	.	.	.	.	.	.	.	.	.
!LO:LB:g=original	!	!	!	!	!	!	!	!	!	!	!	!	!	!	!	!	!	!	!	!	!	!	!	!	!	!	!	!	!	!	!	!	!	!	!	!	!	!	!
=18	=18	=18	=18	=18	=18	=18	=18	=18	=18	=18	=18	=18	=18	=18	=18	=18	=18	=18	=18	=18	=18	=18	=18	=18	=18	=18	=18	=18	=18	=18	=18	=18	=18	=18	=18	=18	=18	=18	=18
!	!	!	!	!	!	!	!	!	!	!	!	!	!	!	!	!	!	!	!	!	!	!	!	!	!	!	!	!LO:TX:a:t=1	!	!LO:TX:a:t=1	!	!LO:TX:a:t=1.	!	!LO:TX:a:t=1	!	!LO:TX:a:t=1.	!	!LO:TX:a:t=1	!
8r	.	.	8r	.	8r	.	[<4g/	8r	.	.	.	.	.	.	.	.	.	.	.	.	.	.	.	.	.	.	.	2.r	.	2.r	.	2.r	.	2.r	.	2.r	.	2.r	.
8GG/	.	.	8B/	.	8d/	.	.	8f\	.	.	.	.	.	.	.	.	.	.	.	.	.	.	.	.	.	.	.	.	.	.	.	.	.	.	.	.	.	.	.
*tremolo	*	*	*tremolo	*	*tremolo	*	*	*tremolo	*	*	*	*	*	*	*	*	*	*	*	*	*	*	*	*	*	*	*	*	*	*	*	*	*	*	*	*	*	*	*
!	!	!	!LO:TX:b:t=....	!	!LO:TX:b:t=....	!	!	!LO:TX:a:t=....	!	!	!	!	!	!	!	!	!	!	!	!	!	!	!	!	!	!	!	!	!	!	!	!	!	!	!	!	!	!	!
8GG/L	.	.	8B'/L	.	8d'/L	.	16g/LL]	8f'>\L	.	.	.	.	.	.	.	.	.	.	.	.	.	.	.	.	.	.	.	.	.	.	.	.	.	.	.	.	.	.	.
.	.	.	.	.	.	.	(<16b^/	.	.	.	.	.	.	.	.	.	.	.	.	.	.	.	.	.	.	.	.	.	.	.	.	.	.	.	.	.	.	.	.
8GG/	.	.	8B'/	.	8d'/	.	16dd^/	8f'>\	.	.	.	.	.	.	.	.	.	.	.	.	.	.	.	.	.	.	.	.	.	.	.	.	.	.	.	.	.	.	.
.	.	.	.	.	.	.	16ff^/JJ)	.	.	.	.	.	.	.	.	.	.	.	.	.	.	.	.	.	.	.	.	.	.	.	.	.	.	.	.	.	.	.	.
8GG/	.	.	8B'/	.	8d'/	.	(<8.aa/L	8f'>\	.	.	.	.	.	.	.	.	.	.	.	.	.	.	.	.	.	.	.	.	.	.	.	.	.	.	.	.	.	.	.
8GG/J	.	.	8B'/J	.	8d'/J	.	.	8f'>\J	.	.	.	.	.	.	.	.	.	.	.	.	.	.	.	.	.	.	.	.	.	.	.	.	.	.	.	.	.	.	.
.	.	.	.	.	.	.	16b/Jk)	.	.	.	.	.	.	.	.	.	.	.	.	.	.	.	.	.	.	.	.	.	.	.	.	.	.	.	.	.	.	.	.
*Xtremolo	*	*	*Xtremolo	*	*Xtremolo	*	*	*Xtremolo	*	*	*	*	*	*	*	*	*	*	*	*	*	*	*	*	*	*	*	*	*	*	*	*	*	*	*	*	*	*	*
!	!	!	!	!	!LO:LB:g=original	!	!	!	!	!	!	!	!	!	!	!	!	!	!	!	!	!LO:LB:g=original	!	!LO:LB:g=original	!	!	!	!	!	!	!	!	!	!	!	!	!	!	!
=19	=19	=19	=19	=19	=19	=19	=19	=19	=19	=19	=19	=19	=19	=19	=19	=19	=19	=19	=19	=19	=19	=19	=19	=19	=19	=19	=19	=19	=19	=19	=19	=19	=19	=19	=19	=19	=19	=19	=19
!	!	!	!	!	!	!	!LO:TX:a:i:t=Tutti	!	!	!	!	!	!	!	!	!	!	!	!LO:TX:a:i:t=Solo	!	!	!	!	!	!	!	!	!	!	!	!	!	!	!	!	!	!	!	!
4C/	.	.	4G/	.	4c/	.	4cc/	4e\	.	.	.	.	.	.	.	.	.	.	4r	.	.	4r	f	4r	f	4r	f	4r	f	4r	f	4r	f	4r	f	4r	f	4r	f
!	!	!LO:DY:rj	!	!	!LO:DY:rj	!LO:DY:t=fr&colon;:rj	!	!	!LO:DY:t=fr&colon;:rj	!	!	!	!	!	!	!	!	!	!	!	!	!	!	!	!	!	!	!	!	!	!	!	!	!	!	!	!	!	!
8C/	8 5 3	f	8G/	f	8ee 8cc 8e 8G/	f	8ccc 8ee 8g\	8ryy	f	.	.	.	.	.	.	.	.	.	8r	.	.	8C/	.	8e/	.	8cc\	.	8e/	.	8cc\	.	8ee\	.	8ccc\	.	8ee\	.	8ccc\	.
8r	.	.	8r	.	8r	.	8r	8ryy	.	.	.	.	.	.	.	.	.	.	8g\	Hic	.	8r	.	8r	.	8r	.	8r	.	8r	.	8r	.	8r	.	8r	.	8r	.
4r	.	.	4r	.	4r	p	4r	4ryy	p	.	.	.	.	.	.	.	.	.	8a\	nem-	.	4r	.	4r	.	4r	.	4r	.	4r	.	4r	.	4r	.	4r	.	4r	.
.	.	p	.	.	.	.	.	.	.	.	.	.	.	.	.	.	.	.	8g\	-pe	.	.	.	.	.	.	.	.	.	.	.	.	.	.	.	.	.	.	.
*	*	*	*	*	*	*	*v	*v	*	*	*	*	*	*	*	*	*	*	*	*	*	*	*	*	*	*	*	*	*	*	*	*	*	*	*	*	*	*	*
=20	=20	=20	=20	=20	=20	=20	=20	=20	=20	=20	=20	=20	=20	=20	=20	=20	=20	=20	=20	=20	=20	=20	=20	=20	=20	=20	=20	=20	=20	=20	=20	=20	=20	=20	=20	=20	=20	=20
*	*	*	*	*	*tremolo	*	*tremolo	*	*	*	*	*	*	*	*	*	*	*	*	*	*	*	*	*	*	*	*	*	*	*	*	*	*	*	*	*	*	*
!LO:TX:a:i:t=Solo.	!	!	!	!LO:DY:t=p.:rj	!	!	!	!	!	!	!	!	!	!	!	!	!	!	!	!	!LO:TX:a:t=14.	!	!LO:TX:a:t=3	!	!LO:TX:a:t=3	!	!LO:TX:a:t=3	!	!LO:TX:a:t=3	!	!LO:TX:a:t=3	!	!LO:TX:a:t=3	!	!LO:TX:a:t=3.	!	!LO:TX:a:t=3	!
2C/	.	.	2G/	p	(>8c/L	p	(>8e/L	.	.	.	.	.	.	.	.	.	.	(4ee\	mun-	.	0.r	.	1.r	.	1.r	.	1.r	.	1.r	.	1.r	.	1.r	.	1.r	.	1.r	.
.	.	.	.	.	8G/	.	8G/	.	.	.	.	.	.	.	.	.	.	.	.	.	.	.	.	.	.	.	.	.	.	.	.	.	.	.	.	.	.	.
.	.	.	.	.	8c/	.	8e/	.	.	.	.	.	.	.	.	.	.	8ff\)	.	.	.	.	.	.	.	.	.	.	.	.	.	.	.	.	.	.	.	.
.	.	.	.	.	8G/J)	.	8G/J)	.	.	.	.	.	.	.	.	.	.	8ee\	-di	.	.	.	.	.	.	.	.	.	.	.	.	.	.	.	.	.	.	.
*	*	*	*	*	*Xtremolo	*	*Xtremolo	*	*	*	*	*	*	*	*	*	*	*	*	*	*	*	*	*	*	*	*	*	*	*	*	*	*	*	*	*	*	*
4GG/	.	.	(8B/L	.	(>8d/L	.	(>8f/L	.	.	.	.	.	.	.	.	.	.	(16ee\LL	gau-	.	.	.	.	.	.	.	.	.	.	.	.	.	.	.	.	.	.	.
.	.	.	.	.	.	.	.	.	.	.	.	.	.	.	.	.	.	16dd\JJ)	.	.	.	.	.	.	.	.	.	.	.	.	.	.	.	.	.	.	.	.
.	.	.	8G/J)	.	8G/J)	.	8G/J)	.	.	.	.	.	.	.	.	.	.	(16a\LL	-di-	.	.	.	.	.	.	.	.	.	.	.	.	.	.	.	.	.	.	.
.	.	.	.	.	.	.	.	.	.	.	.	.	.	.	.	.	.	16b\JJ)	.	.	.	.	.	.	.	.	.	.	.	.	.	.	.	.	.	.	.	.
!	!	!	!LO:LB:g=original	!	!	!	!LO:LB:g=original	!	!	!	!	!	!	!	!	!	!	!LO:LB:g=original	!	!	!	!	!	!	!	!	!	!	!	!	!	!	!	!	!	!	!	!
=21	=21	=21	=21	=21	=21	=21	=21	=21	=21	=21	=21	=21	=21	=21	=21	=21	=21	=21	=21	=21	=21	=21	=21	=21	=21	=21	=21	=21	=21	=21	=21	=21	=21	=21	=21	=21	=21	=21
4C/	.	.	4G/	.	(>8c/L	.	(8e/L	.	0.r	.	.	0.r	.	.	0.r	.	.	(4cc\	-a	.	.	.	.	.	.	.	.	.	.	.	.	.	.	.	.	.	.	.
.	.	.	.	.	8G/J)	.	8G/J)	.	.	.	.	.	.	.	.	.	.	.	.	.	.	.	.	.	.	.	.	.	.	.	.	.	.	.	.	.	.	.
4C/	.	.	4G/	.	8c/L	.	8e/L	.	.	.	.	.	.	.	.	.	.	8g\)	.	.	.	.	.	.	.	.	.	.	.	.	.	.	.	.	.	.	.	.
.	.	.	.	.	8e/	.	8cc/	.	.	.	.	.	.	.	.	.	.	8cc\	et	.	.	.	.	.	.	.	.	.	.	.	.	.	.	.	.	.	.	.
4r	.	.	4r	.	8d/	.	8b/	.	.	.	.	.	.	.	.	.	.	8b\	blan-	.	.	.	.	.	.	.	.	.	.	.	.	.	.	.	.	.	.	.
.	.	.	.	.	8e/J	.	8cc/J	.	.	.	.	.	.	.	.	.	.	8cc\	-da	.	.	.	.	.	.	.	.	.	.	.	.	.	.	.	.	.	.	.
=22	=22	=22	=22	=22	=22	=22	=22	=22	=22	=22	=22	=22	=22	=22	=22	=22	=22	=22	=22	=22	=22	=22	=22	=22	=22	=22	=22	=22	=22	=22	=22	=22	=22	=22	=22	=22	=22	=22
*	*	*	*	*	*tremolo	*	*tremolo	*	*	*	*	*	*	*	*	*	*	*	*	*	*	*	*	*	*	*	*	*	*	*	*	*	*	*	*	*	*	*
2F\	.	.	2A/	.	(8f/L	.	(8a\L	.	.	.	.	.	.	.	.	.	.	4.dd\	frau-	.	.	.	2.r	.	2.r	.	2.r	.	2.r	.	2.r	.	2.r	.	2.r	.	2.r	.
.	.	.	.	.	8a/	.	8dd\	.	.	.	.	.	.	.	.	.	.	.	.	.	.	.	.	.	.	.	.	.	.	.	.	.	.	.	.	.	.	.
.	.	.	.	.	8f/	.	8a\	.	.	.	.	.	.	.	.	.	.	.	.	.	.	.	.	.	.	.	.	.	.	.	.	.	.	.	.	.	.	.
.	.	.	.	.	8a/	.	8dd\J)	.	.	.	.	.	.	.	.	.	.	8cc\	-dum	.	.	.	.	.	.	.	.	.	.	.	.	.	.	.	.	.	.	.
*	*	*	*	*	*	*	*Xtremolo	*	*	*	*	*	*	*	*	*	*	*	*	*	*	*	*	*	*	*	*	*	*	*	*	*	*	*	*	*	*	*
4F\	.	.	4A/	.	8f/	.	(8a\L	.	.	.	.	.	.	.	.	.	.	8b\	pa-	.	.	.	.	.	.	.	.	.	.	.	.	.	.	.	.	.	.	.
.	.	.	.	.	8a/J)	.	8dd#X\J)	.	.	.	.	.	.	.	.	.	.	8a\	-bu-	.	.	.	.	.	.	.	.	.	.	.	.	.	.	.	.	.	.	.
*	*	*	*	*	*Xtremolo	*	*	*	*	*	*	*	*	*	*	*	*	*	*	*	*	*	*	*	*	*	*	*	*	*	*	*	*	*	*	*	*	*
=23	=23	=23	=23	=23	=23	=23	=23	=23	=23	=23	=23	=23	=23	=23	=23	=23	=23	=23	=23	=23	=23	=23	=23	=23	=23	=23	=23	=23	=23	=23	=23	=23	=23	=23	=23	=23	=23	=23
8E\	.	.	8B/	.	8g#X/	.	8ee\	.	.	.	.	.	.	.	.	.	.	4ee\	-la	.	.	.	4r	f	4r	f	4r	f	4r	f	4r	f	4r	f	4r	f	4r	f
8r	.	f	8r	f	8r	f	8r	.	.	.	.	.	.	.	.	.	.	.	.	.	.	.	.	.	.	.	.	.	.	.	.	.	.	.	.	.	.	.
!	!	!	!	!	!	!	!	!LO:DY:t=fr&colon;	!	!	!	!	!	!	!	!	!	!	!	!	!	!	!	!	!	!	!	!	!	!	!	!	!	!	!	!	!	!
8E\	.	.	8B/	.	8g# 8B/	.	8ee 8b 8g#X/	f	.	.	.	.	.	.	.	.	.	8r	.	.	.	.	8e/	.	8ee\	.	8e/	.	8ee\	.	8g#X/	.	8ee\	.	8gg#X\	.	8eee\	.
8r	.	.	8r	.	8r	.	8r	.	.	.	.	.	.	.	.	.	.	8gn\	im-	.	.	.	8r	.	8r	.	8r	.	8r	.	8r	.	8r	.	8r	.	8r	.
4r	.	.	4r	.	4r	.	4r	p	.	.	.	.	.	.	.	.	.	8a\	-bu-	.	.	.	4r	.	4r	.	4r	.	4r	.	4r	.	4r	.	4r	.	4r	.
!	!	!	!	!LO:DY:t=p.	!	!	!	!	!	!	!	!	!	!	!	!	!	!	!	!	!	!	!	!	!	!	!	!	!	!	!	!	!	!	!	!	!	!
.	.	.	.	p	.	.	.	.	.	.	.	.	.	.	.	.	.	8g\	-ta	.	.	.	.	.	.	.	.	.	.	.	.	.	.	.	.	.	.	.
!LO:LB:g=original	!	!	!	!	!LO:LB:g=original	!	!	!	!	!	!	!	!	!	!	!	!	!LO:LB:g=original	!	!	!	!	!	!	!	!	!	!	!	!	!	!	!	!	!	!	!	!
=24	=24	=24	=24	=24	=24	=24	=24	=24	=24	=24	=24	=24	=24	=24	=24	=24	=24	=24	=24	=24	=24	=24	=24	=24	=24	=24	=24	=24	=24	=24	=24	=24	=24	=24	=24	=24	=24	=24
*	*	*	*	*	*tremolo	*	*tremolo	*	*	*	*	*	*	*	*	*	*	*	*	*	*	*	*	*	*	*	*	*	*	*	*	*	*	*	*	*	*	*
!LO:TX:a:i:t=Solo	!	!LO:DY:rj	!	!	!	!LO:DY:rj	!	!	!	!	!	!	!	!	!	!	!	!	!	!	!	!	!LO:TX:a:t=10.	!	!LO:TX:a:t=10.	!	!LO:TX:a:t=7.	!	!LO:TX:a:t=7.	!	!LO:TX:a:t=5.	!	!LO:TX:a:t=5	!	!LO:TX:a:t=7.	!	!LO:TX:a:t=5.	!
2C/	.	p	2G/	.	(8c/L	p	(>8e/L	.	.	.	.	.	.	.	.	.	.	(4ee\	fel-	.	0.r	.	0.r	.	0.r	.	0.r	.	0.r	.	0.r	.	0.r	.	0.r	.	0.r	.
.	.	.	.	.	8Gn/	.	8Gn/	.	.	.	.	.	.	.	.	.	.	.	.	.	.	.	.	.	.	.	.	.	.	.	.	.	.	.	.	.	.	.
.	.	.	.	.	8c/	.	8e/	.	.	.	.	.	.	.	.	.	.	8ff\)	.	.	.	.	.	.	.	.	.	.	.	.	.	.	.	.	.	.	.	.
.	.	.	.	.	8Gn/J)	.	8Gn/J)	.	.	.	.	.	.	.	.	.	.	8ee\	-le	.	.	.	.	.	.	.	.	.	.	.	.	.	.	.	.	.	.	.
*	*	*	*	*	*Xtremolo	*	*Xtremolo	*	*	*	*	*	*	*	*	*	*	*	*	*	*	*	*	*	*	*	*	*	*	*	*	*	*	*	*	*	*	*
4GG/	.	.	(8B/L	.	(>8d/L	.	(8f/L	.	.	.	.	.	.	.	.	.	.	(16ee\LL	de-	.	.	.	.	.	.	.	.	.	.	.	.	.	.	.	.	.	.	.
.	.	.	.	.	.	.	.	.	.	.	.	.	.	.	.	.	.	16dd\JJ)	.	.	.	.	.	.	.	.	.	.	.	.	.	.	.	.	.	.	.	.
.	.	.	8G/J)	.	8G/J)	.	8G/J)	.	.	.	.	.	.	.	.	.	.	(16a\LL	-pu-	.	.	.	.	.	.	.	.	.	.	.	.	.	.	.	.	.	.	.
.	.	.	.	.	.	.	.	.	.	.	.	.	.	.	.	.	.	16b\JJ)	.	.	.	.	.	.	.	.	.	.	.	.	.	.	.	.	.	.	.	.
=25	=25	=25	=25	=25	=25	=25	=25	=25	=25	=25	=25	=25	=25	=25	=25	=25	=25	=25	=25	=25	=25	=25	=25	=25	=25	=25	=25	=25	=25	=25	=25	=25	=25	=25	=25	=25	=25	=25
4C/	.	.	4G/	.	(8c/L	.	(8e/L	.	0.r	.	.	0.r	.	.	0.r	.	.	(4cc\	-tanſ	.	.	.	.	.	.	.	.	.	.	.	.	.	.	.	.	.	.	.
.	.	.	.	.	8G/J)	.	8G/J)	.	.	.	.	.	.	.	.	.	.	.	.	.	.	.	.	.	.	.	.	.	.	.	.	.	.	.	.	.	.	.
4C/	.	.	4G/	.	8c/L	.	8e/L	.	.	.	.	.	.	.	.	.	.	8g\)	.	.	.	.	.	.	.	.	.	.	.	.	.	.	.	.	.	.	.	.
.	.	.	.	.	8e/	.	8cc/	.	.	.	.	.	.	.	.	.	.	8cc\	per-	.	.	.	.	.	.	.	.	.	.	.	.	.	.	.	.	.	.	.
4r	.	.	4r	.	8d/	.	8b/	.	.	.	.	.	.	.	.	.	.	8b\	-ve-	.	.	.	.	.	.	.	.	.	.	.	.	.	.	.	.	.	.	.
!	!	!	!	!	!LO:TX:a:t=e	!	!	!	!	!	!	!	!	!	!	!	!	!	!	!	!	!	!	!	!	!	!	!	!	!	!	!	!	!	!	!	!	!
.	.	.	.	.	8e/J	.	8cc/J	.	.	.	.	.	.	.	.	.	.	8cc\	-nit	.	.	.	.	.	.	.	.	.	.	.	.	.	.	.	.	.	.	.
!	!	!	!	!	!	!	!LO:LB:g=original	!	!	!	!	!	!	!	!	!	!	!	!	!	!	!	!	!	!	!	!	!	!	!	!	!	!	!	!	!	!	!
=26	=26	=26	=26	=26	=26	=26	=26	=26	=26	=26	=26	=26	=26	=26	=26	=26	=26	=26	=26	=26	=26	=26	=26	=26	=26	=26	=26	=26	=26	=26	=26	=26	=26	=26	=26	=26	=26	=26
*	*	*	*	*	*tremolo	*	*tremolo	*	*	*	*	*	*	*	*	*	*	*	*	*	*	*	*	*	*	*	*	*	*	*	*	*	*	*	*	*	*	*
2F\	.	.	2A/	.	(8f/L	.	(8a/L	.	.	.	.	.	.	.	.	.	.	4.ee\	ad	.	.	.	.	.	.	.	.	.	.	.	.	.	.	.	.	.	.	.
.	.	.	.	.	8a/	.	8dd/	.	.	.	.	.	.	.	.	.	.	.	.	.	.	.	.	.	.	.	.	.	.	.	.	.	.	.	.	.	.	.
.	.	.	.	.	8f/	.	8a/	.	.	.	.	.	.	.	.	.	.	.	.	.	.	.	.	.	.	.	.	.	.	.	.	.	.	.	.	.	.	.
.	.	.	.	.	8a/J)	.	8dd/J)	.	.	.	.	.	.	.	.	.	.	8dd\	coe-	.	.	.	.	.	.	.	.	.	.	.	.	.	.	.	.	.	.	.
*	*	*	*	*	*Xtremolo	*	*Xtremolo	*	*	*	*	*	*	*	*	*	*	*	*	*	*	*	*	*	*	*	*	*	*	*	*	*	*	*	*	*	*	*
4G\	.	.	4G/	.	4f/	.	(8a/L	.	.	.	.	.	.	.	.	.	.	8a\	-le-	.	.	.	.	.	.	.	.	.	.	.	.	.	.	.	.	.	.	.
.	.	.	.	.	.	.	8b/J)	.	.	.	.	.	.	.	.	.	.	8b\	-ſti-	.	.	.	.	.	.	.	.	.	.	.	.	.	.	.	.	.	.	.
!	!	!	!	!	!	!	!	!	!	!	!	!	!	!	!	!	!	!LO:LB:g=original	!	!	!	!	!	!	!	!	!	!	!	!	!	!	!	!	!	!	!	!
=27	=27	=27	=27	=27	=27	=27	=27	=27	=27	=27	=27	=27	=27	=27	=27	=27	=27	=27	=27	=27	=27	=27	=27	=27	=27	=27	=27	=27	=27	=27	=27	=27	=27	=27	=27	=27	=27	=27
*	*	*	*^	*	*	*	*	*	*	*	*	*	*	*	*	*	*	*	*	*	*	*	*	*	*	*	*	*	*	*	*	*	*	*	*	*	*	*
4C/	.	.	4G/	4ryy	.	4e/	.	8cc\L	.	.	.	.	.	.	.	.	.	.	4cc\	-a	.	.	.	.	.	.	.	.	.	.	.	.	.	.	.	.	.	.	.
.	.	.	.	.	.	.	.	8g\J	.	.	.	.	.	.	.	.	.	.	.	.	.	.	.	.	.	.	.	.	.	.	.	.	.	.	.	.	.	.	.
*	*	*	*	*	*	*tremolo	*	*tremolo	*	*	*	*	*	*	*	*	*	*	*	*	*	*	*	*	*	*	*	*	*	*	*	*	*	*	*	*	*	*	*
4C/	.	.	2G/	2E\	.	(8c/L	.	(8e/L	.	.	.	.	.	.	.	.	.	.	8r	.	.	.	.	.	.	.	.	.	.	.	.	.	.	.	.	.	.	.	.
.	.	.	.	.	.	8e/	.	8g/	.	.	.	.	.	.	.	.	.	.	8cc\	per-	.	.	.	.	.	.	.	.	.	.	.	.	.	.	.	.	.	.	.
4r	.	.	.	.	.	8c/	.	8e/	.	.	.	.	.	.	.	.	.	.	8b\	-ve-	.	.	.	.	.	.	.	.	.	.	.	.	.	.	.	.	.	.	.
.	.	.	.	.	.	8e/J)	.	8g/J)	.	.	.	.	.	.	.	.	.	.	8a\	-nit	.	.	.	.	.	.	.	.	.	.	.	.	.	.	.	.	.	.	.
=28	=28	=28	=28	=28	=28	=28	=28	=28	=28	=28	=28	=28	=28	=28	=28	=28	=28	=28	=28	=28	=28	=28	=28	=28	=28	=28	=28	=28	=28	=28	=28	=28	=28	=28	=28	=28	=28	=28	=28
4GG/	.	.	2.G/	2.F\	.	(8d/L	.	(8f/L	.	.	.	.	.	.	.	.	.	.	(4..g\	ad	.	0.r	.	0.r	.	0.r	.	1.r	.	1.r	.	2.r	.	2.r	.	1.r	.	2.r	.
.	.	.	.	.	.	8B/	.	8g/	.	.	.	.	.	.	.	.	.	.	.	.	.	.	.	.	.	.	.	.	.	.	.	.	.	.	.	.	.	.	.
4r	.	.	.	.	.	8d/	.	8f/	.	.	.	.	.	.	.	.	.	.	.	.	.	.	.	.	.	.	.	.	.	.	.	.	.	.	.	.	.	.	.
.	.	.	.	.	.	8B/	.	8g/	.	.	.	.	.	.	.	.	.	.	.	.	.	.	.	.	.	.	.	.	.	.	.	.	.	.	.	.	.	.	.
.	.	.	.	.	.	.	.	.	.	.	.	.	.	.	.	.	.	.	16a\)	.	.	.	.	.	.	.	.	.	.	.	.	.	.	.	.	.	.	.	.
4GG/	.	.	.	.	.	8d/	.	8f/	.	.	.	.	.	.	.	.	.	.	(16b\LL	coe-	.	.	.	.	.	.	.	.	.	.	.	.	.	.	.	.	.	.	.
.	.	.	.	.	.	.	.	.	.	.	.	.	.	.	.	.	.	.	16cc\JJ)	.	.	.	.	.	.	.	.	.	.	.	.	.	.	.	.	.	.	.	.
!	!	!	!	!	!	!	!	!	!	!	!	!	!	!	!	!	!	!	!LO:N:vis=8	!	!	!	!	!	!	!	!	!	!	!	!	!	!	!	!	!	!	!	!
.	.	.	.	.	.	8B/J)	.	8g/J)	.	.	.	.	.	.	.	.	.	.	16ee\	-le-	.	.	.	.	.	.	.	.	.	.	.	.	.	.	.	.	.	.	.
!	!	!	!	!	!	!	!	!	!	!	!	!	!	!	!	!	!	!	!LO:N:vis=8	!	!	!	!	!	!	!	!	!	!	!	!	!	!	!	!	!	!	!	!
.	.	.	.	.	.	.	.	.	.	.	.	.	.	.	.	.	.	.	16dd\	-ſti-	.	.	.	.	.	.	.	.	.	.	.	.	.	.	.	.	.	.	.
=29	=29	=29	=29	=29	=29	=29	=29	=29	=29	=29	=29	=29	=29	=29	=29	=29	=29	=29	=29	=29	=29	=29	=29	=29	=29	=29	=29	=29	=29	=29	=29	=29	=29	=29	=29	=29	=29	=29	=29
!	!	!	!	!	!LO:DY:t=mfr.:rj	!	!LO:DY:rj	!	!	!	!	!	!	!	!	!	!	!	!	!	!	!	!	!	!	!	!	!	!	!	!	!	!	!	!	!	!	!	!
4C/	.	.	2.G/	2.E\	mf	(8c/L	mf	(8e/L	mf	4r	.	.	4r	.	.	4r	.	.	4cc\	-a	.	.	.	.	.	.	.	.	.	.	.	4r	p	4r	p	.	.	4r	.
.	.	.	.	.	.	8e/	.	8g/	.	.	.	.	.	.	.	.	.	.	.	.	.	.	.	.	.	.	.	.	.	.	.	.	.	.	.	.	.	.	.
!	!	!	!	!	!	!	!	!	!	!	!	!	!	!	!	!	!	!	!LO:TX:a:i:t=Tutti	!	!LO:DY:b:rj	!	!	!	!	!	!	!	!	!	!	!	!	!	!	!	!	!	!
4C/	.	.	.	.	.	8c/	.	8e/	.	8r	.	.	8r	.	.	8r	.	.	8r	.	mf	.	.	.	.	.	.	.	.	.	.	2gn/	.	2gg\	.	.	.	8r	p
!	!	!	!	!	!	!	!	!	!	!	!	!LO:DY:a	!	!	!	!	!	!	!	!	!	!	!	!	!	!	!	!	!	!	!	!	!	!	!	!	!	!LO:TX:b:i:t=dolce	!
.	.	.	.	.	.	8e/	.	8g/	.	8C/	per-	mf	8c\	per-	.	8g\	per-	.	8cc\	per-	.	.	.	.	.	.	.	.	.	.	.	.	.	.	.	.	.	8ccc'\L	.
4r	.	.	.	.	.	8c/	.	8e/	.	8C/	-ve-	.	8c\	-ve-	.	8g\	-ve-	.	8b\	-ve-	.	.	.	.	.	.	.	.	.	.	.	.	.	.	.	.	.	8bb'\	.
.	.	.	.	.	.	8e/J)	.	8g/J)	.	8C/	-nit	.	8c\	-nit	.	8g\	-nit	.	8a\	-nit	.	.	.	.	.	.	.	.	.	.	.	.	.	.	.	.	.	8aa'\J	.
!LO:LB:g=original	!	!	!LO:LB:g=original	!	!	!LO:LB:g=original	!	!	!	!	!	!	!	!	!	!	!	!	!LO:LB:g=original	!	!	!	!	!	!	!	!	!	!	!	!	!	!	!	!	!	!	!	!
=30	=30	=30	=30	=30	=30	=30	=30	=30	=30	=30	=30	=30	=30	=30	=30	=30	=30	=30	=30	=30	=30	=30	=30	=30	=30	=30	=30	=30	=30	=30	=30	=30	=30	=30	=30	=30	=30	=30	=30
4GG/	.	.	2.G/	2.F\	.	(8d/L	.	(8f/L	.	4.GG/	ad	.	4.d\	ad	.	4.f\	ad	.	(4..g\	ad	.	.	.	.	.	.	.	2.r	.	2.r	.	2.g/	.	2.gg\	.	2.r	.	[4gg\	.
.	.	.	.	.	.	8B/	.	8g/	.	.	.	.	.	.	.	.	.	.	.	.	.	.	.	.	.	.	.	.	.	.	.	.	.	.	.	.	.	.	.
4r	.	.	.	.	.	8d/	.	8f/	.	.	.	.	.	.	.	.	.	.	.	.	.	.	.	.	.	.	.	.	.	.	.	.	.	.	.	.	.	16gg\LL]	.
.	.	.	.	.	.	.	.	.	.	.	.	.	.	.	.	.	.	.	.	.	.	.	.	.	.	.	.	.	.	.	.	.	.	.	.	.	.	16aa'\	.
.	.	.	.	.	.	8B/	.	8g/	.	8GG/	coe-	.	8d\	coe-	.	8f\	coe-	.	.	.	.	.	.	.	.	.	.	.	.	.	.	.	.	.	.	.	.	16bb'\	.
.	.	.	.	.	.	.	.	.	.	.	.	.	.	.	.	.	.	.	16a\)	.	.	.	.	.	.	.	.	.	.	.	.	.	.	.	.	.	.	16ccc'\JJ	.
4GG/	.	.	.	.	.	8d/	.	8f/	.	8GG/	-le-	.	8G/	-le-	.	8g\	-le-	.	(16b\LL	coe-	.	.	.	.	.	.	.	.	.	.	.	.	.	.	.	.	.	(8eee\L	.
.	.	.	.	.	.	.	.	.	.	.	.	.	.	.	.	.	.	.	16cc\JJ)	.	.	.	.	.	.	.	.	.	.	.	.	.	.	.	.	.	.	.	.
!	!	!	!	!	!	!	!	!	!	!	!	!	!	!	!	!	!	!	!LO:N:vis=8	!	!	!	!	!	!	!	!	!	!	!	!	!	!	!	!	!	!	!	!
.	.	.	.	.	.	8B/J)	.	8g/J)	.	8GG/	-ſti-	.	8f\	-ſti-	.	8g\	-ſti-	.	16ee\	-le-	.	.	.	.	.	.	.	.	.	.	.	.	.	.	.	.	.	8ddd\J)	.
!	!	!	!	!	!	!	!	!	!	!	!	!	!	!	!	!	!	!	!LO:N:vis=8	!	!	!	!	!	!	!	!	!	!	!	!	!	!	!	!	!	!	!	!
.	.	.	.	.	.	.	.	.	.	.	.	.	.	.	.	.	.	.	16dd\	-ſti-	.	.	.	.	.	.	.	.	.	.	.	.	.	.	.	.	.	.	.
*	*	*	*	*	*	*Xtremolo	*	*Xtremolo	*	*	*	*	*	*	*	*	*	*	*	*	*	*	*	*	*	*	*	*	*	*	*	*	*	*	*	*	*	*	*
*	*	*	*v	*v	*	*	*	*	*	*	*	*	*	*	*	*	*	*	*	*	*	*	*	*	*	*	*	*	*	*	*	*	*	*	*	*	*	*	*
!	!	!	!	!	!	!	!LO:LB:g=original	!	!	!	!	!	!	!	!	!	!	!	!	!	!	!	!	!	!	!	!	!	!	!	!	!	!LO:LB:g=original	!	!	!	!LO:LB:g=original	!
=31	=31	=31	=31	=31	=31	=31	=31	=31	=31	=31	=31	=31	=31	=31	=31	=31	=31	=31	=31	=31	=31	=31	=31	=31	=31	=31	=31	=31	=31	=31	=31	=31	=31	=31	=31	=31	=31	=31
*	*	*	*	*	*	*	*^	*	*	*	*	*	*	*	*	*	*	*	*	*	*	*	*	*	*	*	*	*	*	*	*	*	*	*	*	*	*	*
!	!	!LO:DY:rj	!	!LO:DY:t=p.:rj	!	!LO:DY:rj	!LO:TX:a:i:t=Solo.	!	!	!	!	!	!	!	!	!	!	!	!	!	!	!	!	!	!	!	!	!	!	!	!	!	!LO:DY:t=pp.:rj	!	!LO:DY:rj	!	!	!	!LO:DY:rj
8C/L	.	p	8c/L	p	8G/L	p	8c/	8c\L	.	4C/	-a,	.	4e\	-a	.	4g\	-a	.	4cc\	-a	.	.	.	.	.	.	.	8r	pp	8r	pp	8g/L	pp	8ee\L	pp	8r	p	8ccc\L	pp
8C/	.	.	8c/	.	8e/	.	4ee^/	8g\	.	.	.	.	.	.	.	.	.	.	.	.	.	.	.	.	.	.	.	8e/L	.	8cc\L	.	8g/	.	8ee\	.	8ee\L	.	8ccc\	.
8C/J	.	.	8c/J	.	8e/J	.	.	8g\J	.	4r	.	.	4r	.	.	4r	.	.	4r	.	.	.	.	.	.	.	.	8e/J	.	8cc\J	.	8g/J	.	8ee\J	.	8ee\J	.	8ccc\J	.
8r	.	.	8r	.	8r	.	(16dd/LL	8r	.	.	.	.	.	.	.	.	.	.	.	.	.	.	.	.	.	.	.	8r	.	8r	.	8r	.	8r	.	8r	.	8r	.
.	.	.	.	.	.	.	16cc/JJ)	.	.	.	.	.	.	.	.	.	.	.	.	.	.	.	.	.	.	.	.	.	.	.	.	.	.	.	.	.	.	.	.
4r	.	.	4r	.	4r	.	(16b/LL	4r	.	4r	.	.	4r	.	.	4r	.	.	4r	.	.	.	.	.	.	.	.	4r	.	4r	.	4r	.	4r	.	4r	.	4r	.
.	.	.	.	.	.	.	16a/	.	.	.	.	.	.	.	.	.	.	.	.	.	.	.	.	.	.	.	.	.	.	.	.	.	.	.	.	.	.	.	.
.	.	.	.	.	.	.	16g/	.	.	.	.	.	.	.	.	.	.	.	.	.	.	.	.	.	.	.	.	.	.	.	.	.	.	.	.	.	.	.	.
.	.	.	.	.	.	.	16f/JJ)	.	.	.	.	.	.	.	.	.	.	.	.	.	.	.	.	.	.	.	.	.	.	.	.	.	.	.	.	.	.	.	.
!	!	!	!	!	!	!	!	!	!	!LO:LB:g=original	!	!	!LO:LB:g=original	!	!	!LO:LB:g=original	!	!	!	!	!	!	!	!	!	!	!	!	!	!	!	!LO:LB:g=original	!	!	!	!	!	!	!
=32	=32	=32	=32	=32	=32	=32	=32	=32	=32	=32	=32	=32	=32	=32	=32	=32	=32	=32	=32	=32	=32	=32	=32	=32	=32	=32	=32	=32	=32	=32	=32	=32	=32	=32	=32	=32	=32	=32	=32
!	!	!	!	!	!	!	!	!	!	!LO:TX:a:t=12.	!	!	!LO:TX:a:t=12.	!	!	!LO:TX:a:t=12.	!	!	!LO:TX:a:t=2	!	!	!	!	!	!	!	!	!	!	!	!	!	!	!	!	!	!	!	!
8r	.	.	8r	.	8r	.	8e/	8r	.	0.r	.	.	0.r	.	.	0.r	.	.	1.r	.	.	1.r	.	1.r	.	1.r	.	8r	.	8r	.	8r	.	8r	.	8r	.	8r	.
8C/L	.	.	8c/L	.	8e/L	.	4gg^/	8g\L	.	.	.	.	.	.	.	.	.	.	.	.	.	.	.	.	.	.	.	8e/L	.	8cc\L	.	8ee\L	.	8gg\L	.	8ee\L	.	8ccc\L	.
8C/J	.	.	8c/J	.	8e/J	.	.	8g\J	.	.	.	.	.	.	.	.	.	.	.	.	.	.	.	.	.	.	.	8e/J	.	8cc\J	.	8ee\J	.	8gg\J	.	8ee\J	.	8ccc\J	.
8r	.	.	8r	.	8r	.	(16ff/LL	8r	.	.	.	.	.	.	.	.	.	.	.	.	.	.	.	.	.	.	.	8r	.	8r	.	8r	.	8r	.	8r	.	8r	.
.	.	.	.	.	.	.	16ee/JJ)	.	.	.	.	.	.	.	.	.	.	.	.	.	.	.	.	.	.	.	.	.	.	.	.	.	.	.	.	.	.	.	.
4r	.	.	4r	.	4r	.	(16dd/LL	4r	.	.	.	.	.	.	.	.	.	.	.	.	.	.	.	.	.	.	.	4r	.	4r	.	4r	.	4r	.	4r	.	4r	.
.	.	.	.	.	.	.	16cc/	.	.	.	.	.	.	.	.	.	.	.	.	.	.	.	.	.	.	.	.	.	.	.	.	.	.	.	.	.	.	.	.
.	.	.	.	.	.	.	16b/	.	.	.	.	.	.	.	.	.	.	.	.	.	.	.	.	.	.	.	.	.	.	.	.	.	.	.	.	.	.	.	.
.	.	.	.	.	.	.	16a/JJ)	.	.	.	.	.	.	.	.	.	.	.	.	.	.	.	.	.	.	.	.	.	.	.	.	.	.	.	.	.	.	.	.
=33	=33	=33	=33	=33	=33	=33	=33	=33	=33	=33	=33	=33	=33	=33	=33	=33	=33	=33	=33	=33	=33	=33	=33	=33	=33	=33	=33	=33	=33	=33	=33	=33	=33	=33	=33	=33	=33	=33	=33
!	!	!	!	!	!	!	!	!	!	!	!	!	!	!	!	!	!	!	!	!	!	!	!	!	!	!	!	!LO:TX:a:t=1	!	!LO:TX:a:t=1	!	!LO:TX:a:t=1	!	!LO:TX:a:t=1	!	!LO:TX:a:t=1.	!	!LO:TX:a:t=1	!
8r	.	.	8r	.	8r	.	[<4g/	8r	.	.	.	.	.	.	.	.	.	.	.	.	.	.	.	.	.	.	.	2.r	.	2.r	.	2.r	.	2.r	.	2.r	.	2.r	.
8GG/	.	.	8B/	.	8d/	.	.	8f\	.	.	.	.	.	.	.	.	.	.	.	.	.	.	.	.	.	.	.	.	.	.	.	.	.	.	.	.	.	.	.
*tremolo	*	*	*tremolo	*	*tremolo	*	*	*tremolo	*	*	*	*	*	*	*	*	*	*	*	*	*	*	*	*	*	*	*	*	*	*	*	*	*	*	*	*	*	*	*
!LO:TX:b:t=....	!	!	!LO:TX:b:t=....	!	!LO:TX:b:t=....	!	!	!LO:TX:a:t=....	!	!	!	!	!	!	!	!	!	!	!	!	!	!	!	!	!	!	!	!	!	!	!	!	!	!	!	!	!	!	!
8GG'/L	.	.	8B'/L	.	8d'/L	.	16g/LL]	8f'>\L	.	.	.	.	.	.	.	.	.	.	.	.	.	.	.	.	.	.	.	.	.	.	.	.	.	.	.	.	.	.	.
.	.	.	.	.	.	.	16b^/	.	.	.	.	.	.	.	.	.	.	.	.	.	.	.	.	.	.	.	.	.	.	.	.	.	.	.	.	.	.	.	.
8GG'/	.	.	8B'/	.	8d'/	.	16dd^/	8f'>\	.	.	.	.	.	.	.	.	.	.	.	.	.	.	.	.	.	.	.	.	.	.	.	.	.	.	.	.	.	.	.
.	.	.	.	.	.	.	16ff^/JJ	.	.	.	.	.	.	.	.	.	.	.	.	.	.	.	.	.	.	.	.	.	.	.	.	.	.	.	.	.	.	.	.
!	!	!	!	!	!	!	!LO:TX:t=P:problem=grupa rytmiczna uzupełniona ołówkiem [przyjęto zgodnie z t. 18, 48]	!	!	!	!	!	!	!	!	!	!	!	!	!	!	!	!	!	!	!	!	!	!	!	!	!	!	!	!	!	!	!	!
!	!	!	!	!	!	!	!LO:S:color=grey	!	!	!	!	!	!	!	!	!	!	!	!	!	!	!	!	!	!	!	!	!	!	!	!	!	!	!	!	!	!	!	!
8GG'/	.	.	8B'/	.	8d'/	.	(8.aa\L@	8f'>\	.	.	.	.	.	.	.	.	.	.	.	.	.	.	.	.	.	.	.	.	.	.	.	.	.	.	.	.	.	.	.
8GG'/J	.	.	8B'/J	.	8d'/J	.	.	8f'>\J	.	.	.	.	.	.	.	.	.	.	.	.	.	.	.	.	.	.	.	.	.	.	.	.	.	.	.	.	.	.	.
.	.	.	.	.	.	.	16b\Jk)@	.	.	.	.	.	.	.	.	.	.	.	.	.	.	.	.	.	.	.	.	.	.	.	.	.	.	.	.	.	.	.	.
*Xtremolo	*	*	*Xtremolo	*	*Xtremolo	*	*	*Xtremolo	*	*	*	*	*	*	*	*	*	*	*	*	*	*	*	*	*	*	*	*	*	*	*	*	*	*	*	*	*	*	*
!	!	!	!	!	!	!	!	!	!	!	!	!	!	!	!	!	!	!	!	!	!	!	!	!	!	!	!	!LO:LB:g=original	!	!LO:LB:g=original	!	!	!	!	!	!LO:LB:g=original	!	!	!
=34	=34	=34	=34	=34	=34	=34	=34	=34	=34	=34	=34	=34	=34	=34	=34	=34	=34	=34	=34	=34	=34	=34	=34	=34	=34	=34	=34	=34	=34	=34	=34	=34	=34	=34	=34	=34	=34	=34	=34
!	!	!	!	!	!	!	!LO:TX:a:i:t=Tutti	!	!	!	!	!	!	!	!	!	!	!	!	!	!	!	!	!	!	!	!	!	!	!	!	!	!	!	!	!	!	!	!
4C/	.	.	4G/	.	4c/	.	4cc/	4e\	.	.	.	.	.	.	.	.	.	.	4r	.	.	4r	f	4r	f	4r	f	4r	f	4r	f	4r	f	4r	f	4r	f	4r	f
!	!	!LO:DY:rj	!	!LO:DY:rj	!	!	!	!	!LO:DY:t=fr.:rj	!	!	!	!	!	!	!	!	!	!LO:TX:a:i:t=Solo	!	!	!	!	!	!	!	!	!	!	!	!	!	!	!	!	!	!	!	!
8C/	8 5 3	f	8G/	f	8ee 8cc 8e 8G/	.	8ccc 8ee 8g\	8ryy	f	.	.	.	.	.	.	.	.	.	8r	.	.	8C/	.	8e/	.	8cc\	.	8e/	.	8cc\	.	8ee\	.	8ccc\	.	8ee\	.	8ccc\	.
8r	.	.	8r	.	8r	.	8r	8ryy	.	.	.	.	.	.	.	.	.	.	8g\	Laus	.	8r	.	8r	.	8r	.	8r	.	8r	.	8r	.	8r	.	8r	.	8r	.
4r	.	.	4r	.	4r	p	4r	4ryy	.	.	.	.	.	.	.	.	.	.	8a\	et	.	4r	.	4r	.	4r	.	4r	.	4r	.	4r	.	4r	.	4r	.	4r	.
!	!	!	!	!LO:DY:t=p.	!	!	!	!	!	!	!	!	!	!	!	!	!	!	!	!	!	!	!	!	!	!	!	!	!	!	!	!	!	!	!	!	!	!	!
.	.	.	.	p	.	.	.	.	.	.	.	.	.	.	.	.	.	.	8g\	pe-	.	.	.	.	.	.	.	.	.	.	.	.	.	.	.	.	.	.	.
*	*	*	*	*	*	*	*v	*v	*	*	*	*	*	*	*	*	*	*	*	*	*	*	*	*	*	*	*	*	*	*	*	*	*	*	*	*	*	*	*
!LO:LB:g=original	!	!	!	!	!	!	!LO:LB:g=original	!	!	!	!	!	!	!	!	!	!	!LO:LB:g=original	!	!	!	!	!	!	!	!	!	!	!	!	!	!	!	!	!	!	!	!
=35	=35	=35	=35	=35	=35	=35	=35	=35	=35	=35	=35	=35	=35	=35	=35	=35	=35	=35	=35	=35	=35	=35	=35	=35	=35	=35	=35	=35	=35	=35	=35	=35	=35	=35	=35	=35	=35	=35
*	*	*	*	*	*tremolo	*	*tremolo	*	*	*	*	*	*	*	*	*	*	*	*	*	*	*	*	*	*	*	*	*	*	*	*	*	*	*	*	*	*	*
!	!	!	!	!	!	!	!	!	!	!	!	!	!	!	!	!	!	!	!	!	!LO:TX:t=P:problem=ilość taktów poprawiona ołówkiem na 13.	!	!	!	!	!	!	!	!	!	!	!	!	!	!	!	!	!
!LO:TX:a:i:t=Solo.	!	!LO:DY:rj	!	!	!	!LO:DY:rj	!	!LO:DY:rj	!	!	!	!	!	!	!	!	!	!	!	!	!LO:TX:a:t=14.	!	!LO:TX:a:t=3	!	!LO:TX:a:t=3	!	!LO:TX:a:t=3	!	!LO:TX:a:t=3	!	!LO:TX:a:t=3	!	!LO:TX:a:t=3	!	!LO:TX:a:t=3	!	!LO:TX:a:t=3	!
2C/	.	p	2G/	.	(>8c/L	p	(>8e/L	p	.	.	.	.	.	.	.	.	.	(4ee^\	-ren-	.	0.r	.	1.r	.	1.r	.	1.r	.	1.r	.	1.r	.	1.r	.	1.r	.	1.r	.
.	.	.	.	.	8G/	.	8G/	.	.	.	.	.	.	.	.	.	.	.	.	.	.	.	.	.	.	.	.	.	.	.	.	.	.	.	.	.	.	.
.	.	.	.	.	8c/	.	8e/	.	.	.	.	.	.	.	.	.	.	8ff\)	.	.	.	.	.	.	.	.	.	.	.	.	.	.	.	.	.	.	.	.
.	.	.	.	.	8G/J)	.	8G/J)	.	.	.	.	.	.	.	.	.	.	8ee\	-niſ	.	.	.	.	.	.	.	.	.	.	.	.	.	.	.	.	.	.	.
*	*	*	*	*	*Xtremolo	*	*Xtremolo	*	*	*	*	*	*	*	*	*	*	*	*	*	*	*	*	*	*	*	*	*	*	*	*	*	*	*	*	*	*	*
4GG/	.	.	(8B/L	.	(8d/L	.	(>8f/L	.	.	.	.	.	.	.	.	.	.	(16ee\LL	glo-	.	.	.	.	.	.	.	.	.	.	.	.	.	.	.	.	.	.	.
.	.	.	.	.	.	.	.	.	.	.	.	.	.	.	.	.	.	16dd\JJ)	.	.	.	.	.	.	.	.	.	.	.	.	.	.	.	.	.	.	.	.
.	.	.	8G/J)	.	8G/J)	.	8G/J)	.	.	.	.	.	.	.	.	.	.	(16a\LL	-ri-	.	.	.	.	.	.	.	.	.	.	.	.	.	.	.	.	.	.	.
.	.	.	.	.	.	.	.	.	.	.	.	.	.	.	.	.	.	16b\JJ)	.	.	.	.	.	.	.	.	.	.	.	.	.	.	.	.	.	.	.	.
=36	=36	=36	=36	=36	=36	=36	=36	=36	=36	=36	=36	=36	=36	=36	=36	=36	=36	=36	=36	=36	=36	=36	=36	=36	=36	=36	=36	=36	=36	=36	=36	=36	=36	=36	=36	=36	=36	=36
4C/	.	.	4G/	.	(8c/L	.	(8e/L	.	0.r	.	.	0.r	.	.	0.r	.	.	(4cc\	-a	.	.	.	.	.	.	.	.	.	.	.	.	.	.	.	.	.	.	.
.	.	.	.	.	8G/J)	.	8G/J)	.	.	.	.	.	.	.	.	.	.	.	.	.	.	.	.	.	.	.	.	.	.	.	.	.	.	.	.	.	.	.
4C/	.	.	4G/	.	8c/L	.	8e/L	.	.	.	.	.	.	.	.	.	.	8g\)	.	.	.	.	.	.	.	.	.	.	.	.	.	.	.	.	.	.	.	.
.	.	.	.	.	8e/	.	8cc/	.	.	.	.	.	.	.	.	.	.	8cc\	pa-	.	.	.	.	.	.	.	.	.	.	.	.	.	.	.	.	.	.	.
4r	.	.	4r	.	8d/	.	8b/	.	.	.	.	.	.	.	.	.	.	8b\	-tri	.	.	.	.	.	.	.	.	.	.	.	.	.	.	.	.	.	.	.
.	.	.	.	.	8e/J	.	8cc/J	.	.	.	.	.	.	.	.	.	.	8cc\	ſit	.	.	.	.	.	.	.	.	.	.	.	.	.	.	.	.	.	.	.
!	!	!	!LO:LB:g=original	!	!	!	!	!	!	!	!	!	!	!	!	!	!	!	!	!	!	!	!	!	!	!	!	!	!	!	!	!	!	!	!	!	!	!
=37	=37	=37	=37	=37	=37	=37	=37	=37	=37	=37	=37	=37	=37	=37	=37	=37	=37	=37	=37	=37	=37	=37	=37	=37	=37	=37	=37	=37	=37	=37	=37	=37	=37	=37	=37	=37	=37	=37
*	*	*	*	*	*tremolo	*	*tremolo	*	*	*	*	*	*	*	*	*	*	*	*	*	*	*	*	*	*	*	*	*	*	*	*	*	*	*	*	*	*	*
2F\	.	.	2A/	.	(8f/L	.	(8a\L	.	.	.	.	.	.	.	.	.	.	4.dd\	at-	.	.	.	2.r	.	2.r	.	2.r	.	2.r	.	2.r	.	2.r	.	2.r	.	2.r	.
.	.	.	.	.	8a/	.	8dd\	.	.	.	.	.	.	.	.	.	.	.	.	.	.	.	.	.	.	.	.	.	.	.	.	.	.	.	.	.	.	.
.	.	.	.	.	8f/	.	8a\	.	.	.	.	.	.	.	.	.	.	.	.	.	.	.	.	.	.	.	.	.	.	.	.	.	.	.	.	.	.	.
.	.	.	.	.	8a/	.	8dd\J)	.	.	.	.	.	.	.	.	.	.	8cc\	-que	.	.	.	.	.	.	.	.	.	.	.	.	.	.	.	.	.	.	.
*	*	*	*	*	*	*	*Xtremolo	*	*	*	*	*	*	*	*	*	*	*	*	*	*	*	*	*	*	*	*	*	*	*	*	*	*	*	*	*	*	*
4F\	.	.	4A/	.	8f/	.	(8a\L	.	.	.	.	.	.	.	.	.	.	8b\	Fi-	.	.	.	.	.	.	.	.	.	.	.	.	.	.	.	.	.	.	.
.	.	.	.	.	8a/J)	.	8dd#X\J)	.	.	.	.	.	.	.	.	.	.	8a\	-li-	.	.	.	.	.	.	.	.	.	.	.	.	.	.	.	.	.	.	.
*	*	*	*	*	*Xtremolo	*	*	*	*	*	*	*	*	*	*	*	*	*	*	*	*	*	*	*	*	*	*	*	*	*	*	*	*	*	*	*	*	*
!	!	!	!	!	!	!	!	!	!	!	!	!	!	!	!	!	!	!LO:LB:g=original	!	!	!	!	!	!	!	!	!	!	!	!	!	!	!	!	!	!	!	!
=38	=38	=38	=38	=38	=38	=38	=38	=38	=38	=38	=38	=38	=38	=38	=38	=38	=38	=38	=38	=38	=38	=38	=38	=38	=38	=38	=38	=38	=38	=38	=38	=38	=38	=38	=38	=38	=38	=38
8E\	.	.	8B/	.	8g#X/	.	8ee\	.	.	.	.	.	.	.	.	.	.	4ee\	-o	.	.	.	4r	f	4r	f	4r	f	4r	f	4r	f	4r	f	4r	f	4r	f
8r	.	f	8r	f	8r	f	8r	f	.	.	.	.	.	.	.	.	.	.	.	.	.	.	.	.	.	.	.	.	.	.	.	.	.	.	.	.	.	.
8E\	.	.	8B/	.	8g# 8B/	.	8ee 8b 8g#X/	.	.	.	.	.	.	.	.	.	.	8r	.	.	.	.	8e/	.	8ee\	.	8e/	.	8ee\	.	8g#X/	.	8ee\	.	8gg#X\	.	8eee\	.
8r	.	.	8r	.	8r	.	8r	.	.	.	.	.	.	.	.	.	.	8gn\	San-	.	.	.	8r	.	8r	.	8r	.	8r	.	8r	.	8r	.	8r	.	8r	.
4r	.	.	4r	.	4r	p	4r	.	.	.	.	.	.	.	.	.	.	8a\	-cto	.	.	.	4r	.	4r	.	4r	.	4r	.	4r	.	4r	.	4r	.	4r	.
.	.	p	.	.	.	.	.	.	.	.	.	.	.	.	.	.	.	8g\	ſi-	.	.	.	.	.	.	.	.	.	.	.	.	.	.	.	.	.	.	.
!	!	!	!	!	!	!	!LO:LB:g=original	!	!	!	!	!	!	!	!	!	!	!	!	!	!	!	!	!	!	!	!	!	!	!	!	!	!	!	!	!	!	!
=39	=39	=39	=39	=39	=39	=39	=39	=39	=39	=39	=39	=39	=39	=39	=39	=39	=39	=39	=39	=39	=39	=39	=39	=39	=39	=39	=39	=39	=39	=39	=39	=39	=39	=39	=39	=39	=39	=39
*	*	*	*	*	*tremolo	*	*tremolo	*	*	*	*	*	*	*	*	*	*	*	*	*	*	*	*	*	*	*	*	*	*	*	*	*	*	*	*	*	*	*
!	!	!	!	!	!	!	!	!	!	!	!	!	!	!	!	!	!	!	!	!	!	!	!LO:TX:t=P:problem=ilość taktów poprawiona ołówkiem na 9	!	!LO:TX:t=P:problem=ilość taktów poprawiona ołówkiem na 9	!	!	!	!	!	!	!	!	!	!	!	!	!
!	!	!	!	!LO:DY:rj	!	!	!	!	!	!	!	!	!	!	!	!	!	!	!	!	!	!	!LO:TX:a:t=10.	!	!LO:TX:a:t=10.	!	!LO:TX:a:t=7.	!	!LO:TX:a:t=7.	!	!LO:TX:a:t=5.	!	!LO:TX:a:t=5	!	!LO:TX:a:t=7.	!	!LO:TX:a:t=5	!
2C/	.	.	2G/	p	(8c/L	.	(8e/L	.	.	.	.	.	.	.	.	.	.	(4ee\	-mul	.	0.r	.	0.r	.	0.r	.	0.r	.	0.r	.	0.r	.	0.r	.	0.r	.	0.r	.
.	.	.	.	.	8Gn/	.	8Gn/	.	.	.	.	.	.	.	.	.	.	.	.	.	.	.	.	.	.	.	.	.	.	.	.	.	.	.	.	.	.	.
.	.	.	.	.	8c/	.	8e/	.	.	.	.	.	.	.	.	.	.	8ff\)	.	.	.	.	.	.	.	.	.	.	.	.	.	.	.	.	.	.	.	.
.	.	.	.	.	8Gn/J)	.	8Gn/J)	.	.	.	.	.	.	.	.	.	.	8ee\	pa-	.	.	.	.	.	.	.	.	.	.	.	.	.	.	.	.	.	.	.
*	*	*	*	*	*Xtremolo	*	*Xtremolo	*	*	*	*	*	*	*	*	*	*	*	*	*	*	*	*	*	*	*	*	*	*	*	*	*	*	*	*	*	*	*
4GG/	.	.	(8B/L	.	(8d/L	.	(8f/L	.	.	.	.	.	.	.	.	.	.	(16ee\LL	-ra-	.	.	.	.	.	.	.	.	.	.	.	.	.	.	.	.	.	.	.
.	.	.	.	.	.	.	.	.	.	.	.	.	.	.	.	.	.	16dd\JJ)	.	.	.	.	.	.	.	.	.	.	.	.	.	.	.	.	.	.	.	.
.	.	.	8G/J)	.	8G/J)	.	8G/J)	.	.	.	.	.	.	.	.	.	.	(16a\LL	-cli-	.	.	.	.	.	.	.	.	.	.	.	.	.	.	.	.	.	.	.
.	.	.	.	.	.	.	.	.	.	.	.	.	.	.	.	.	.	16b\JJ)	.	.	.	.	.	.	.	.	.	.	.	.	.	.	.	.	.	.	.	.
=40	=40	=40	=40	=40	=40	=40	=40	=40	=40	=40	=40	=40	=40	=40	=40	=40	=40	=40	=40	=40	=40	=40	=40	=40	=40	=40	=40	=40	=40	=40	=40	=40	=40	=40	=40	=40	=40	=40
4C/	.	.	4G/	.	(8c/L	.	(8e/L	.	0.r	.	.	0.r	.	.	0.r	.	.	(4cc\	-to	.	.	.	.	.	.	.	.	.	.	.	.	.	.	.	.	.	.	.
.	.	.	.	.	8G/J)	.	8G/J)	.	.	.	.	.	.	.	.	.	.	.	.	.	.	.	.	.	.	.	.	.	.	.	.	.	.	.	.	.	.	.
4C/	.	.	4G/	.	8c/L	.	8e/L	.	.	.	.	.	.	.	.	.	.	8g\)	.	.	.	.	.	.	.	.	.	.	.	.	.	.	.	.	.	.	.	.
.	.	.	.	.	8e/	.	8cc/	.	.	.	.	.	.	.	.	.	.	8cc\	in	.	.	.	.	.	.	.	.	.	.	.	.	.	.	.	.	.	.	.
4r	.	.	4r	.	8d/	.	8b/	.	.	.	.	.	.	.	.	.	.	8b\	ſem-	.	.	.	.	.	.	.	.	.	.	.	.	.	.	.	.	.	.	.
.	.	.	.	.	8e/J	.	8cc/J	.	.	.	.	.	.	.	.	.	.	8cc\	-pi-	.	.	.	.	.	.	.	.	.	.	.	.	.	.	.	.	.	.	.
!LO:LB:g=original	!	!	!	!	!LO:LB:g=original	!	!	!	!	!	!	!	!	!	!	!	!	!LO:LB:g=original	!	!	!	!	!	!	!	!	!	!	!	!	!	!	!	!	!	!	!	!
=41	=41	=41	=41	=41	=41	=41	=41	=41	=41	=41	=41	=41	=41	=41	=41	=41	=41	=41	=41	=41	=41	=41	=41	=41	=41	=41	=41	=41	=41	=41	=41	=41	=41	=41	=41	=41	=41	=41
*	*	*	*	*	*tremolo	*	*tremolo	*	*	*	*	*	*	*	*	*	*	*	*	*	*	*	*	*	*	*	*	*	*	*	*	*	*	*	*	*	*	*
2F\	.	.	2A/	.	(8f/L	.	(8a/L	.	.	.	.	.	.	.	.	.	.	4.ee\	-ter-	.	.	.	.	.	.	.	.	.	.	.	.	.	.	.	.	.	.	.
.	.	.	.	.	8a/	.	8dd/	.	.	.	.	.	.	.	.	.	.	.	.	.	.	.	.	.	.	.	.	.	.	.	.	.	.	.	.	.	.	.
.	.	.	.	.	8f/	.	8a/	.	.	.	.	.	.	.	.	.	.	.	.	.	.	.	.	.	.	.	.	.	.	.	.	.	.	.	.	.	.	.
.	.	.	.	.	8a/J)	.	8dd/J)	.	.	.	.	.	.	.	.	.	.	8dd\	-na	.	.	.	.	.	.	.	.	.	.	.	.	.	.	.	.	.	.	.
*	*	*	*	*	*Xtremolo	*	*Xtremolo	*	*	*	*	*	*	*	*	*	*	*	*	*	*	*	*	*	*	*	*	*	*	*	*	*	*	*	*	*	*	*
4G\	.	.	4G/	.	4f/	.	(8a/L	.	.	.	.	.	.	.	.	.	.	8a\	ſae-	.	.	.	.	.	.	.	.	.	.	.	.	.	.	.	.	.	.	.
.	.	.	.	.	.	.	8b/J)	.	.	.	.	.	.	.	.	.	.	8b\	-cu-	.	.	.	.	.	.	.	.	.	.	.	.	.	.	.	.	.	.	.
=42	=42	=42	=42	=42	=42	=42	=42	=42	=42	=42	=42	=42	=42	=42	=42	=42	=42	=42	=42	=42	=42	=42	=42	=42	=42	=42	=42	=42	=42	=42	=42	=42	=42	=42	=42	=42	=42	=42
*	*	*	*^	*	*	*	*	*	*	*	*	*	*	*	*	*	*	*	*	*	*	*	*	*	*	*	*	*	*	*	*	*	*	*	*	*	*	*
4C/	.	.	4G/	4ryy	.	4e/	.	8cc/L	.	.	.	.	.	.	.	.	.	.	4cc\	-la	.	.	.	.	.	.	.	.	.	.	.	.	.	.	.	.	.	.	.
.	.	.	.	.	.	.	.	8g/J	.	.	.	.	.	.	.	.	.	.	.	.	.	.	.	.	.	.	.	.	.	.	.	.	.	.	.	.	.	.	.
*	*	*	*	*	*	*tremolo	*	*tremolo	*	*	*	*	*	*	*	*	*	*	*	*	*	*	*	*	*	*	*	*	*	*	*	*	*	*	*	*	*	*	*
4C/	.	.	2G/	2E\	.	(8c/L	.	(8e/L	.	.	.	.	.	.	.	.	.	.	8r	.	.	.	.	.	.	.	.	.	.	.	.	.	.	.	.	.	.	.	.
.	.	.	.	.	.	8e/	.	8g/	.	.	.	.	.	.	.	.	.	.	8cc\	in	.	.	.	.	.	.	.	.	.	.	.	.	.	.	.	.	.	.	.
4r	.	.	.	.	.	8c/	.	8e/	.	.	.	.	.	.	.	.	.	.	8b\	ſem-	.	.	.	.	.	.	.	.	.	.	.	.	.	.	.	.	.	.	.
.	.	.	.	.	.	8e/J)	.	8g/J)	.	.	.	.	.	.	.	.	.	.	8a\	-pi-	.	.	.	.	.	.	.	.	.	.	.	.	.	.	.	.	.	.	.
=43	=43	=43	=43	=43	=43	=43	=43	=43	=43	=43	=43	=43	=43	=43	=43	=43	=43	=43	=43	=43	=43	=43	=43	=43	=43	=43	=43	=43	=43	=43	=43	=43	=43	=43	=43	=43	=43	=43	=43
4GG/	.	.	2.G/	2.F\	.	(8d/L	.	(8f/L	.	.	.	.	.	.	.	.	.	.	(4..g\	-ter-	.	0.r	.	0.r	.	0.r	.	1.r	.	1.r	.	2.r	.	2.r	.	1.r	.	2.r	.
.	.	.	.	.	.	8B/	.	8g/	.	.	.	.	.	.	.	.	.	.	.	.	.	.	.	.	.	.	.	.	.	.	.	.	.	.	.	.	.	.	.
4r	.	.	.	.	.	8d/	.	8f/	.	.	.	.	.	.	.	.	.	.	.	.	.	.	.	.	.	.	.	.	.	.	.	.	.	.	.	.	.	.	.
.	.	.	.	.	.	8B/	.	8g/	.	.	.	.	.	.	.	.	.	.	.	.	.	.	.	.	.	.	.	.	.	.	.	.	.	.	.	.	.	.	.
.	.	.	.	.	.	.	.	.	.	.	.	.	.	.	.	.	.	.	16a\)	.	.	.	.	.	.	.	.	.	.	.	.	.	.	.	.	.	.	.	.
4GG/	.	.	.	.	.	8d/	.	8f/	.	.	.	.	.	.	.	.	.	.	(16b\LL	-na	.	.	.	.	.	.	.	.	.	.	.	.	.	.	.	.	.	.	.
.	.	.	.	.	.	.	.	.	.	.	.	.	.	.	.	.	.	.	16cc\JJ)	.	.	.	.	.	.	.	.	.	.	.	.	.	.	.	.	.	.	.	.
!	!	!	!	!	!	!	!	!	!	!	!	!	!	!	!	!	!	!	!LO:N:vis=8	!	!	!	!	!	!	!	!	!	!	!	!	!	!	!	!	!	!	!	!
.	.	.	.	.	.	8B/J)	.	8g/J)	.	.	.	.	.	.	.	.	.	.	16ee\	ſae-	.	.	.	.	.	.	.	.	.	.	.	.	.	.	.	.	.	.	.
!	!	!	!	!	!	!	!	!	!	!	!	!	!	!	!	!	!	!	!LO:N:vis=8	!	!	!	!	!	!	!	!	!	!	!	!	!	!	!	!	!	!	!	!
.	.	.	.	.	.	.	.	.	.	.	.	.	.	.	.	.	.	.	16dd\	-cu-	.	.	.	.	.	.	.	.	.	.	.	.	.	.	.	.	.	.	.
!	!	!	!	!	!	!	!	!LO:LB:g=original	!	!	!	!	!	!	!	!	!	!	!LO:LB:g=original	!	!	!	!	!	!	!	!	!	!	!	!	!	!	!	!	!	!	!	!
=44	=44	=44	=44	=44	=44	=44	=44	=44	=44	=44	=44	=44	=44	=44	=44	=44	=44	=44	=44	=44	=44	=44	=44	=44	=44	=44	=44	=44	=44	=44	=44	=44	=44	=44	=44	=44	=44	=44	=44
!	!	!	!	!	!LO:DY:rj	!	!LO:DY:rj	!	!LO:DY:rj	!	!	!	!	!	!	!	!	!	!	!	!	!	!	!	!	!	!	!	!	!	!	!	!	!	!	!	!	!	!
4C/	.	.	2.G/	2.E\	mf	(8c/L	mf	(8e/L	mf	4r	.	.	4r	.	.	4r	.	.	4cc\	-la	.	.	.	.	.	.	.	.	.	.	.	4r	p	4r	.	.	.	4r	.
.	.	.	.	.	.	8e/	.	8g/	.	.	.	.	.	.	.	.	.	.	.	.	.	.	.	.	.	.	.	.	.	.	.	.	.	.	.	.	.	.	.
!	!	!	!	!	!	!	!	!	!	!	!	!LO:DY:a	!	!	!	!	!	!	!LO:TX:a:i:t=Tutti	!	!LO:DY:b	!	!	!	!	!	!	!	!	!	!	!	!	!	!LO:DY:rj	!	!	!	!
4C/	.	.	.	.	.	8c/	.	8e/	.	8r	.	mf	8r	.	.	8r	.	.	8r	.	mf	.	.	.	.	.	.	.	.	.	.	2gn/	.	2gg\	p	.	.	8r	p
!	!	!	!	!	!	!	!	!	!	!	!	!	!	!	!	!	!	!	!	!	!	!	!	!	!	!	!	!	!	!	!	!	!	!	!	!	!	!LO:TX:b:i:t=dolce	!
.	.	.	.	.	.	8e/	.	8g/	.	8C/	in	.	8c\	in	.	8g\	in	.	8cc\	in	.	.	.	.	.	.	.	.	.	.	.	.	.	.	.	.	.	8ccc'\L	.
4r	.	.	.	.	.	8c/	.	8e/	.	8C/	ſem-	.	8c\	ſem-	.	8g\	ſem-	.	8b\	ſem-	.	.	.	.	.	.	.	.	.	.	.	.	.	.	.	.	.	8bb'\	.
.	.	.	.	.	.	8e/J)	.	8g/J)	.	8C/	-pi-	.	8c\	-pi-	.	8g\	-pi-	.	8a\	-pi-	.	.	.	.	.	.	.	.	.	.	.	.	.	.	.	.	.	8aa'\J	.
=45	=45	=45	=45	=45	=45	=45	=45	=45	=45	=45	=45	=45	=45	=45	=45	=45	=45	=45	=45	=45	=45	=45	=45	=45	=45	=45	=45	=45	=45	=45	=45	=45	=45	=45	=45	=45	=45	=45	=45
4GG/	.	.	2.G/	2.F\	.	(8d/L	.	(8f/L	.	4.GG/	-ter-	.	4.d\	-ter-	.	4.f\	-ter-	.	(4..g\	-ter-	.	.	.	.	.	.	.	2.r	.	2.r	.	2.g/	.	2.gg\	.	2.r	.	[4gg\	.
.	.	.	.	.	.	8B/	.	8g/	.	.	.	.	.	.	.	.	.	.	.	.	.	.	.	.	.	.	.	.	.	.	.	.	.	.	.	.	.	.	.
4r	.	.	.	.	.	8d/	.	8f/	.	.	.	.	.	.	.	.	.	.	.	.	.	.	.	.	.	.	.	.	.	.	.	.	.	.	.	.	.	16gg\LL]	.
.	.	.	.	.	.	.	.	.	.	.	.	.	.	.	.	.	.	.	.	.	.	.	.	.	.	.	.	.	.	.	.	.	.	.	.	.	.	16aa'\	.
.	.	.	.	.	.	8B/	.	8g/	.	8GG/	-na	.	8d\	-na	.	8f\	-na	.	.	.	.	.	.	.	.	.	.	.	.	.	.	.	.	.	.	.	.	16bb'\	.
.	.	.	.	.	.	.	.	.	.	.	.	.	.	.	.	.	.	.	16a\)	.	.	.	.	.	.	.	.	.	.	.	.	.	.	.	.	.	.	16ccc'\JJ	.
4GG/	.	.	.	.	.	8d/	.	8f/	.	8GG/	ſae-	.	8G/	ſae-	.	8g\	ſae-	.	(16b\LL	-na	.	.	.	.	.	.	.	.	.	.	.	.	.	.	.	.	.	(8eee\L	.
.	.	.	.	.	.	.	.	.	.	.	.	.	.	.	.	.	.	.	16cc\JJ)	.	.	.	.	.	.	.	.	.	.	.	.	.	.	.	.	.	.	.	.
!	!	!	!	!	!	!	!	!	!	!	!	!	!	!	!	!	!	!	!LO:N:vis=8	!	!	!	!	!	!	!	!	!	!	!	!	!	!	!	!	!	!	!	!
.	.	.	.	.	.	8B/J)	.	8g/J)	.	8GG/	-cu-	.	8f\	-cu-	.	8g\	-cu-	.	16ee\	ſae-	.	.	.	.	.	.	.	.	.	.	.	.	.	.	.	.	.	8ddd\J)	.
!	!	!	!	!	!	!	!	!	!	!	!	!	!	!	!	!	!	!	!LO:N:vis=8	!	!	!	!	!	!	!	!	!	!	!	!	!	!	!	!	!	!	!	!
.	.	.	.	.	.	.	.	.	.	.	.	.	.	.	.	.	.	.	16dd\	-cu-	.	.	.	.	.	.	.	.	.	.	.	.	.	.	.	.	.	.	.
*	*	*	*	*	*	*Xtremolo	*	*Xtremolo	*	*	*	*	*	*	*	*	*	*	*	*	*	*	*	*	*	*	*	*	*	*	*	*	*	*	*	*	*	*	*
*	*	*	*v	*v	*	*	*	*	*	*	*	*	*	*	*	*	*	*	*	*	*	*	*	*	*	*	*	*	*	*	*	*	*	*	*	*	*	*	*
!	!	!	!LO:LB:g=original	!	!	!	!	!	!	!	!	!	!	!	!	!	!	!	!	!	!	!	!	!	!	!	!	!	!	!	!	!	!	!	!	!	!	!
=46	=46	=46	=46	=46	=46	=46	=46	=46	=46	=46	=46	=46	=46	=46	=46	=46	=46	=46	=46	=46	=46	=46	=46	=46	=46	=46	=46	=46	=46	=46	=46	=46	=46	=46	=46	=46	=46	=46
*	*	*	*	*	*	*	*^	*	*	*	*	*	*	*	*	*	*	*	*	*	*	*	*	*	*	*	*	*	*	*	*	*	*	*	*	*	*	*
!	!	!	!	!LO:DY:t=p.:rj	!	!LO:DY:rj	!LO:TX:a:i:t=Solo	!	!	!	!	!	!	!	!	!	!	!	!	!	!	!	!	!	!	!	!	!	!	!	!	!	!LO:DY:rj	!	!LO:DY:rj:t=pp.	!	!	!	!LO:DY:rj:t=pp.
8C/L	.	p	8c/L	p	8G/L	p	8c/	8c\L	.	4C/	-la	.	4e\	-la,	.	4g\	-la	.	4cc\	-la,	.	.	.	.	.	.	.	8r	pp	8r	pp	8g/L	pp	8ee\L	pp	8r	p	8ccc\L	pp
8C/	.	.	8c/	.	8e/	.	4ee^/	8g\	.	.	.	.	.	.	.	.	.	.	.	.	.	.	.	.	.	.	.	8e/L	.	8cc\L	.	8g/	.	8ee\	.	8ee\L	.	8ccc\	.
8C/J	.	.	8c/J	.	8e/J	.	.	8g\J	.	4r	.	.	4r	.	.	4r	.	.	4r	.	.	.	.	.	.	.	.	8e/J	.	8cc\J	.	8g/J	.	8ee\J	.	8ee\J	.	8ccc\J	.
8r	.	.	8r	.	8r	.	(<16dd/LL	8r	.	.	.	.	.	.	.	.	.	.	.	.	.	.	.	.	.	.	.	8r	.	8r	.	8r	.	8r	.	8r	.	8r	.
.	.	.	.	.	.	.	16cc/JJ)	.	.	.	.	.	.	.	.	.	.	.	.	.	.	.	.	.	.	.	.	.	.	.	.	.	.	.	.	.	.	.	.
4r	.	.	4r	.	4r	.	(16b/LL	4r	.	4r	.	.	4r	.	.	4r	.	.	4r	.	.	.	.	.	.	.	.	4r	.	4r	.	4r	.	4r	.	4r	.	4r	.
.	.	.	.	.	.	.	16a/	.	.	.	.	.	.	.	.	.	.	.	.	.	.	.	.	.	.	.	.	.	.	.	.	.	.	.	.	.	.	.	.
.	.	.	.	.	.	.	16g/	.	.	.	.	.	.	.	.	.	.	.	.	.	.	.	.	.	.	.	.	.	.	.	.	.	.	.	.	.	.	.	.
.	.	.	.	.	.	.	16f/JJ)	.	.	.	.	.	.	.	.	.	.	.	.	.	.	.	.	.	.	.	.	.	.	.	.	.	.	.	.	.	.	.	.
!LO:LB:g=original	!	!	!	!	!LO:LB:g=original	!	!	!	!	!	!	!	!	!	!	!	!	!	!	!	!	!	!	!	!	!	!	!	!	!	!	!	!	!LO:LB:g=original	!	!	!	!LO:LB:g=original	!
=47	=47	=47	=47	=47	=47	=47	=47	=47	=47	=47	=47	=47	=47	=47	=47	=47	=47	=47	=47	=47	=47	=47	=47	=47	=47	=47	=47	=47	=47	=47	=47	=47	=47	=47	=47	=47	=47	=47	=47
!	!	!	!	!	!	!	!	!	!	!LO:TX:a:t=1.	!	!	!LO:TX:a:t=1.	!	!	!LO:TX:a:t=1.	!	!	!LO:TX:a:t=1.	!	!	!	!	!	!	!	!	!	!	!	!	!	!	!	!	!	!	!	!
8r	.	.	8r	.	8r	.	8e/	8r	.	2.r	.	.	2.r	.	.	2.r	.	.	2.r	.	.	1.r	.	1.r	.	1.r	.	8r	.	8r	.	8r	.	8r	.	8r	.	8r	.
8C/L	.	.	8c/L	.	8e/L	.	4gg^/	8g\L	.	.	.	.	.	.	.	.	.	.	.	.	.	.	.	.	.	.	.	8e/L	.	8cc\L	.	8ee\L	.	8gg\L	.	8ee\L	.	8ccc\L	.
8C/J	.	.	8c/J	.	8e/J	.	.	8g\J	.	.	.	.	.	.	.	.	.	.	.	.	.	.	.	.	.	.	.	8e/J	.	8cc\J	.	8ee\J	.	8gg\J	.	8ee\J	.	8ccc\J	.
8r	.	.	8r	.	8r	.	(16ff/LL	8r	.	.	.	.	.	.	.	.	.	.	.	.	.	.	.	.	.	.	.	8r	.	8r	.	8r	.	8r	.	8r	.	8r	.
.	.	.	.	.	.	.	16ee/JJ)	.	.	.	.	.	.	.	.	.	.	.	.	.	.	.	.	.	.	.	.	.	.	.	.	.	.	.	.	.	.	.	.
4r	.	.	4r	.	4r	.	(16dd/LL	4r	.	.	.	.	.	.	.	.	.	.	.	.	.	.	.	.	.	.	.	4r	.	4r	.	4r	.	4r	.	4r	.	4r	.
.	.	.	.	.	.	.	16cc/	.	.	.	.	.	.	.	.	.	.	.	.	.	.	.	.	.	.	.	.	.	.	.	.	.	.	.	.	.	.	.	.
.	.	.	.	.	.	.	16b/	.	.	.	.	.	.	.	.	.	.	.	.	.	.	.	.	.	.	.	.	.	.	.	.	.	.	.	.	.	.	.	.
.	.	.	.	.	.	.	16a/JJ)	.	.	.	.	.	.	.	.	.	.	.	.	.	.	.	.	.	.	.	.	.	.	.	.	.	.	.	.	.	.	.	.
*	*	*	*	*	*	*	*v	*v	*	*	*	*	*	*	*	*	*	*	*	*	*	*	*	*	*	*	*	*	*	*	*	*	*	*	*	*	*	*	*
!	!	!	!	!	!	!	!LO:LB:g=original	!	!LO:LB:g=original	!	!	!LO:LB:g=original	!	!	!LO:LB:g=original	!	!	!LO:LB:g=original	!	!	!	!	!	!	!	!	!	!	!	!	!LO:LB:g=original	!	!	!	!	!	!	!
=48	=48	=48	=48	=48	=48	=48	=48	=48	=48	=48	=48	=48	=48	=48	=48	=48	=48	=48	=48	=48	=48	=48	=48	=48	=48	=48	=48	=48	=48	=48	=48	=48	=48	=48	=48	=48	=48	=48
!LO:TX:t=P:problem=zbędna pauza w clno I | clno II | timp	!	!	!LO:TX:t=P:problem=zbędna pauza w clno I | clno II | timp	!	!LO:TX:t=P:problem=zbędna pauza w clno I | clno II | timp	!	!LO:TX:t=P:problem=zbędna pauza w clno I | clno II | timp	!	!LO:TX:t=P:problem=zbędna pauza w clno I | clno II | timp	!	!	!LO:TX:t=P:problem=zbędna pauza w clno I | clno II | timp	!	!	!LO:TX:t=P:problem=zbędna pauza w clno I | clno II | timp	!	!	!LO:TX:t=P:problem=zbędna pauza w clno I | clno II | timp	!	!	!LO:TX:t=P:problem=zbędna pauza	!	!LO:TX:t=P:problem=zbędna pauza	!	!LO:TX:t=P:problem=zbędna pauza	!	!LO:TX:t=P:problem=zbędna pauza w clno I | clno II | timp	!	!LO:TX:t=P:problem=zbędna pauza w clno I | clno II | timp	!	!LO:TX:t=P:problem=zbędna pauza w clno I | clno II | timp	!	!LO:TX:t=P:problem=zbędna pauza w clno I | clno II | timp	!	!LO:TX:t=P:problem=zbędna pauza w clno I | clno II | timp	!	!LO:TX:t=P:problem=zbędna pauza w clno I | clno II | timp	!
2.ryy	.	.	2.ryy	.	2.ryy	.	2.ryy	.	2.ryy	.	.	2.ryy	.	.	2.ryy	.	.	2.ryy	.	.	.	.	.	.	.	.	2.ryy	.	2.ryy	.	2.ryy	.	2.ryy	.	2.ryy	.	2.ryy	.
!	!	!	!	!	!	!	!	!	!	!	!	!	!	!	!	!	!	!	!	!	!	!	!	!	!LO:LB:g=original	!	!	!	!	!	!	!	!	!	!	!	!	!
=49	=49	=49	=49	=49	=49	=49	=49	=49	=49	=49	=49	=49	=49	=49	=49	=49	=49	=49	=49	=49	=49	=49	=49	=49	=49	=49	=49	=49	=49	=49	=49	=49	=49	=49	=49	=49	=49	=49
*	*	*	*	*	*	*	*^	*	*	*	*	*	*	*	*	*	*	*	*	*	*	*	*	*	*	*	*	*	*	*	*	*	*	*	*	*	*	*
*	*	*	*	*	*	*	*	*	*	*2\right	*	*	*2\right	*	*	*2\right	*	*	*2\right	*	*	*	*	*	*	*	*	*	*	*	*	*	*	*	*	*	*	*	*
!	!	!	!	!	!	!	!	!	!	!	!	!LO:DY:b:rj	!	!	!LO:DY:b:t=fr.:rj	!	!	!LO:DY:b:rj	!	!	!LO:DY:rj:b	!	!	!	!	!	!	!	!	!	!	!	!	!	!	!	!	!	!
8r	.	f	8r	.	8r	f	[<4g/	8r	.	2.G\	a-	f	(2B\	a-	f	2.g\	a-	f	2.dd\	a-	f	8r	f	8r	f	8r	f	8r	f	8r	f	8r	f	8r	f	8r	f	8r	f
8GG/	7_ 5_ 3_	.	8d 8B/	.	8f 8G/	.	.	8f\	.	.	.	.	.	.	.	.	.	.	.	.	.	16GG/LL	.	16g/LL	.	16dd\LL	.	8g/	.	8dd\	.	8dd\	.	8ff\	.	8bb\	.	8ddd\	.
.	.	.	.	.	.	.	.	.	.	.	.	.	.	.	.	.	.	.	.	.	.	16GG/JJ	.	16g/JJ	.	16dd\JJ	.	.	.	.	.	.	.	.	.	.	.	.	.
*	*	*	*	*	*	*	*	*	*	*	*	*	*	*	*	*	*	*	*	*	*	*	*	*	*	*2\right	*	*	*	*2\right	*	*2\right	*	*2\right	*	*2\right	*	*	*
*tremolo	*	*	*tremolo	*	*tremolo	*	*	*tremolo	*	*	*	*	*	*	*	*	*	*	*	*	*	*tremolo	*	*tremolo	*	*tremolo	*	*tremolo	*	*tremolo	*	*tremolo	*	*tremolo	*	*tremolo	*	*tremolo	*
!LO:TX:b:t=....	!	!	!LO:TX:b:t=....	!	!LO:TX:b:t=....	!	!	!	!	!	!	!	!	!	!	!	!	!	!	!	!	!LO:TX:b:t=....	!	!LO:TX:b:t=....	!	!LO:TX:a:t=....	!	!LO:TX:b:t=....	!	!LO:TX:a:t=....	!	!LO:TX:a:t=....	!	!LO:TX:a:t=....	!	!LO:TX:a:t=....	!	!LO:TX:a:t=....	!
8GG'/L	.	.	8dL 8B'/	.	8fL 8G'/	.	16g/LL]	8f\L	.	.	.	.	.	.	.	.	.	.	.	.	.	8GG'/L	.	8g'/L	.	8dd'\L	.	8g'/L	.	8dd'\L	.	8dd'\L	.	8ff'\L	.	8bb'\L	.	8ddd'\L	.
.	.	.	.	.	.	.	(<16b^/	.	.	.	.	.	.	.	.	.	.	.	.	.	.	.	.	.	.	.	.	.	.	.	.	.	.	.	.	.	.	.	.
8GG'/	.	.	8d 8B'/	.	8f 8G'/	.	16dd^/	8f\	.	.	.	.	.	.	.	.	.	.	.	.	.	8GG'/	.	8g'/	.	8dd'\	.	8g'/	.	8dd'\	.	8dd'\	.	8ff'\	.	8bb'\	.	8ddd'\	.
.	.	.	.	.	.	.	16ff^/JJ)	.	.	.	.	.	.	.	.	.	.	.	.	.	.	.	.	.	.	.	.	.	.	.	.	.	.	.	.	.	.	.	.
8GG'/	.	.	8d 8B'/	.	8f 8G'/	.	(<8.aa/L	8f\	.	.	.	.	4f\)	.	.	.	.	.	.	.	.	8GG'/	.	8g'/	.	8dd'\	.	8g'/	.	8dd'\	.	8dd'\	.	8ff'\	.	8bb'\	.	8ddd'\	.
8GG'/J	.	.	8dJ 8B'/	.	8fJ 8G'/	.	.	8f\J	.	.	.	.	.	.	.	.	.	.	.	.	.	8GG'/J	.	8g'/J	.	8dd'\J	.	8g'/J	.	8dd'\J	.	8dd'\J	.	8ff'\J	.	8bb'\J	.	8ddd'\J	.
.	.	.	.	.	.	.	16b/Jk)	.	.	.	.	.	.	.	.	.	.	.	.	.	.	.	.	.	.	.	.	.	.	.	.	.	.	.	.	.	.	.	.
*Xtremolo	*	*	*Xtremolo	*	*Xtremolo	*	*	*Xtremolo	*	*	*	*	*	*	*	*	*	*	*	*	*	*Xtremolo	*	*Xtremolo	*	*Xtremolo	*	*Xtremolo	*	*Xtremolo	*	*Xtremolo	*	*Xtremolo	*	*Xtremolo	*	*Xtremolo	*
!	!	!	!	!	!	!	!	!	!	!	!	!	!	!	!	!	!	!	!	!	!	!	!	!LO:LB:g=original	!	!	!	!	!	!	!	!	!	!	!	!	!	!	!
=50	=50	=50	=50	=50	=50	=50	=50	=50	=50	=50	=50	=50	=50	=50	=50	=50	=50	=50	=50	=50	=50	=50	=50	=50	=50	=50	=50	=50	=50	=50	=50	=50	=50	=50	=50	=50	=50	=50	=50
!	!	!	!	!	!	!	!LO:TX:a:i:t=tutti	!	!	!	!	!	!	!	!	!	!	!	!	!	!	!	!	!	!	!	!	!	!	!	!	!	!	!	!	!	!	!	!
4C/	8_ 5_ 3_	.	4c 4C/	.	4c/	.	4cc/	4e\	.	2C/	-men.	.	2e\	-men.	.	2g\	-men.	.	2cc\	-men	.	4C/	.	4e/	.	4cc\	.	4e/	.	4cc\	.	4cc\	.	4ee\	.	4gg\	.	4ccc\	.
!	!	!LO:DY:rj	!	!LO:DY:rj	!	!LO:DY:rj	!	!	!LO:DY:rj:t=ffr&colon;	!	!	!	!	!	!	!	!	!	!	!	!	!	!	!	!	!	!	!	!LO:DY:rj	!	!LO:DY:rj	!	!LO:DY:rj	!	!LO:DY:rj	!	!LO:DY:rj	!	!LO:DY:rj:t=ffr.
4C/	.	ff	4g 4c 4C/	ff	4ee 4cc 4e 4G/	ff	4ccc 4ee 4g\	8ryy	ff	.	.	.	.	.	.	.	.	.	.	.	.	4C/	.	4e/	.	4cc\	.	4e/	ff	4cc\	ff	4ee\	ff	4ccc\	ff	4gg\	ff	4ccc'\	ff
.	.	.	.	.	.	.	.	8ryy	.	.	.	.	.	.	.	.	.	.	.	.	.	.	.	.	.	.	.	.	.	.	.	.	.	.	.	.	.	.	.
!LO:TX:b:i:t=Finis	!	!	!	!	!	!	!	!	!	!	!	!	!LO:TX:b:i:t=Finis	!	!	!	!	!	!LO:TX:b:i:t=Finis	!	!	!LO:TX:b:i:t=Finis.	!	!LO:TX:b:i:t=Finis.	!	!LO:TX:b:i:t=Finis	!	!LO:TX:b:i:t=Finis	!	!LO:TX:b:i:t=Finis	!	!LO:TX:b:i:t=Finis	!	!	!	!LO:TX:b:i:t=Finis	!	!	!
4r	x	.	4r	.	4r	.	4r	4ryy	.	4r	.	.	4r	.	.	4r	.	.	4r	.	.	4r	.	4r	.	4r	.	4r	.	4r	.	4r	.	4r	.	4r	.	4r	.
*	*	*	*	*	*	*	*v	*v	*	*	*	*	*	*	*	*	*	*	*	*	*	*	*	*	*	*	*	*	*	*	*	*	*	*	*	*	*	*	*
==	==	==	==	==	==	==	==	==	==	==	==	==	==	==	==	==	==	==	==	==	==	==	==	==	==	==	==	==	==	==	==	==	==	==	==	==	==	==
*-	*-	*-	*-	*-	*-	*-	*-	*-	*-	*-	*-	*-	*-	*-	*-	*-	*-	*-	*-	*-	*-	*-	*-	*-	*-	*-	*-	*-	*-	*-	*-	*-	*-	*-	*-	*-	*-	*-
!!!system-decoration: [(g1)][(g2)]<s9>[(g3)][(g4)]<s17>
!!!RDF**kern: > = above
!!!RDF**kern: < = below
!!!RDF**kern: @ = marked note, color=grey
!!!RDF**dynam: f = "fr"
!!!RDF**dynam: mf = "mfr"
!!!RDF**dynam: ff = "ffr"
!!!ENC: Andrzej Kubiczek
!!!END: 2020-10-16
!!!ENC: Andrzej Kubiczek
!!!END: 2022-01-19
